;FLAVOR:UltiGCode
;TIME:38659
;MATERIAL:145094
;MATERIAL2:0
;NOZZLE_DIAMETER:0.4
;Generated with Cura_SteamEngine 3.6.0
M82 ;absolute extrusion mode

G92 E0
G10
;LAYER_COUNT:167
;LAYER:0
M107
G0 F4500 X28.84 Y22.366 Z0.27
;TYPE:SKIRT
G11
G1 F1800 X29.379 Y21.783 E0.07503
G1 X29.973 Y21.257 E0.15001
G1 X30.516 Y20.86 E0.21357
G1 X30.763 Y20.695 E0.24165
G1 X31.444 Y20.288 E0.31662
G1 X32.162 Y19.951 E0.39157
G1 X32.911 Y19.689 E0.46656
G1 X33.683 Y19.503 E0.5416
G1 X34.469 Y19.396 E0.61656
G1 X35.137 Y19.368 E0.67974
G1 X140.018 Y19.371 E10.591
G1 X140.292 Y19.283 E10.61819
G1 X141.068 Y19.118 E10.69316
G1 X141.856 Y19.032 E10.76807
G1 X142.321 Y19.018 E10.81203
G1 X188.958 Y19.029 E15.21923
G1 X189.75 Y19.069 E15.29417
G1 X190.535 Y19.189 E15.36921
G1 X191.303 Y19.387 E15.44416
G1 X192.048 Y19.661 E15.51918
G1 X192.761 Y20.009 E15.59415
G1 X193.435 Y20.427 E15.6691
G1 X194.064 Y20.911 E15.7441
G1 X194.562 Y21.374 E15.80836
G1 X194.781 Y21.596 E15.83783
G1 X195.309 Y22.188 E15.91279
G1 X195.775 Y22.83 E15.98776
G1 X196.174 Y23.516 E16.06275
G1 X196.502 Y24.239 E16.13778
G1 X196.755 Y24.991 E16.21275
G1 X196.931 Y25.764 E16.28767
G1 X197.029 Y26.552 E16.36271
G1 X197.05 Y27.126 E16.41699
G1 X197.05 Y195.898 E32.36595
G1 X197.01 Y196.69 E32.44088
G1 X196.891 Y197.475 E32.51592
G1 X196.693 Y198.243 E32.59086
G1 X196.418 Y198.988 E32.66591
G1 X196.071 Y199.701 E32.74084
G1 X195.653 Y200.376 E32.81587
G1 X195.17 Y201.005 E32.89082
G1 X194.769 Y201.441 E32.94679
G1 X194.549 Y201.663 E32.97633
G1 X193.962 Y202.198 E33.05138
G1 X193.325 Y202.671 E33.12636
G1 X192.644 Y203.078 E33.20133
G1 X191.925 Y203.413 E33.27629
G1 X191.176 Y203.675 E33.35128
G1 X190.404 Y203.86 E33.4263
G1 X189.618 Y203.967 E33.50126
G1 X188.955 Y203.995 E33.56397
G1 X35.443 Y204.004 E48.07085
G1 X34.651 Y203.964 E48.14579
G1 X33.867 Y203.845 E48.22073
G1 X33.098 Y203.647 E48.29577
G1 X32.354 Y203.373 E48.37069
G1 X31.678 Y203.046 E48.44166
G1 X31.52 Y202.96 E48.45866
G1 X30.843 Y202.546 E48.53365
G1 X30.211 Y202.066 E48.60864
G1 X29.631 Y201.525 E48.6836
G1 X29.108 Y200.928 E48.7586
G1 X28.788 Y200.494 E48.80956
G1 X27.72 Y198.935 E48.98814
G1 X27.305 Y198.258 E49.06318
G1 X26.961 Y197.544 E49.13807
G1 X26.69 Y196.798 E49.21308
G1 X26.489 Y196.001 E49.29075
G1 X26.097 Y194.004 E49.48307
G1 X25.984 Y193.219 E49.55802
G1 X25.95 Y192.487 E49.62726
G1 X25.956 Y30.208 E64.96263
G1 X25.996 Y29.415 E65.03766
G1 X26.108 Y28.668 E65.10904
G1 X26.371 Y27.349 E65.23614
G1 X26.565 Y26.58 E65.31109
G1 X26.836 Y25.834 E65.38609
G1 X27.157 Y25.161 E65.45656
G1 X27.953 Y23.68 E65.61545
G1 X28.364 Y23.001 E65.69045
G1 X28.84 Y22.366 E65.76545
G0 F4500 X29.132 Y22.564
G1 F1800 X29.661 Y21.997 E65.83873
G1 X30.246 Y21.487 E65.91207
G1 X30.71 Y21.151 E65.9662
G1 X30.957 Y20.986 E65.99428
G1 X31.623 Y20.589 E66.06755
G1 X32.327 Y20.262 E66.1409
G1 X33.06 Y20.01 E66.21415
G1 X33.816 Y19.835 E66.28748
G1 X34.586 Y19.738 E66.36082
G1 X35.137 Y19.718 E66.41292
G1 X140.069 Y19.721 E76.329
G1 X140.602 Y19.567 E76.38143
G1 X141.365 Y19.429 E76.4547
G1 X142.321 Y19.368 E76.54522
G1 X188.958 Y19.379 E80.95242
G1 X189.732 Y19.419 E81.02566
G1 X190.499 Y19.539 E81.09902
G1 X191.249 Y19.737 E81.17233
G1 X191.974 Y20.011 E81.24557
G1 X192.668 Y20.358 E81.31889
G1 X193.322 Y20.775 E81.39219
G1 X193.93 Y21.257 E81.46551
G1 X194.313 Y21.619 E81.51531
G1 X194.532 Y21.841 E81.54478
G1 X195.048 Y22.421 E81.61814
G1 X195.501 Y23.05 E81.6914
G1 X195.887 Y23.723 E81.76471
G1 X196.201 Y24.432 E81.83799
G1 X196.441 Y25.17 E81.91133
G1 X196.604 Y25.928 E81.98459
G1 X196.688 Y26.699 E82.05788
G1 X196.7 Y27.126 E82.09825
G1 X196.7 Y195.898 E98.04721
G1 X196.66 Y196.673 E98.12054
G1 X196.541 Y197.439 E98.1938
G1 X196.343 Y198.189 E98.2671
G1 X196.069 Y198.915 E98.34043
G1 X195.722 Y199.608 E98.41367
G1 X195.305 Y200.262 E98.48697
G1 X194.823 Y200.87 E98.56029
G1 X194.52 Y201.195 E98.60228
G1 X194.3 Y201.417 E98.63181
G1 X193.726 Y201.939 E98.70513
G1 X193.102 Y202.399 E98.77839
G1 X192.434 Y202.793 E98.85168
G1 X191.728 Y203.115 E98.92501
G1 X190.994 Y203.364 E98.99825
G1 X190.237 Y203.535 E99.07159
G1 X189.467 Y203.628 E99.14489
G1 X188.955 Y203.645 E99.1933
G1 X35.443 Y203.654 E113.70018
G1 X34.669 Y203.614 E113.77342
G1 X33.902 Y203.495 E113.84677
G1 X33.152 Y203.297 E113.92007
G1 X32.427 Y203.023 E113.99331
G1 X31.846 Y202.738 E114.05447
G1 X31.688 Y202.652 E114.07147
G1 X31.026 Y202.247 E114.14481
G1 X30.41 Y201.776 E114.21808
G1 X29.846 Y201.243 E114.29142
G1 X29.34 Y200.656 E114.36465
G1 X29.077 Y200.296 E114.40679
G1 X28.009 Y198.737 E114.58537
G1 X27.604 Y198.075 E114.6587
G1 X27.27 Y197.375 E114.732
G1 X27.009 Y196.645 E114.80526
G1 X26.833 Y195.933 E114.87457
G1 X26.441 Y193.936 E115.06689
G1 X26.331 Y193.169 E115.14011
G1 X26.3 Y192.487 E115.20462
G1 X26.306 Y30.208 E130.53999
G1 X26.346 Y29.433 E130.61333
G1 X26.451 Y28.737 E130.67984
G1 X26.714 Y27.418 E130.80694
G1 X26.905 Y26.666 E130.88026
G1 X27.172 Y25.937 E130.95363
G1 X27.466 Y25.326 E131.0177
G1 X28.262 Y23.845 E131.17659
G1 X28.664 Y23.182 E131.24986
G1 X29.132 Y22.564 E131.32312
G0 F4500 X29.423 Y22.762
G1 F1800 X29.943 Y22.211 E131.39472
G1 X30.518 Y21.719 E131.46623
G1 X30.904 Y21.442 E131.51113
G1 X31.151 Y21.277 E131.5392
G1 X31.803 Y20.89 E131.61085
G1 X32.491 Y20.574 E131.68239
G1 X33.209 Y20.332 E131.75399
G1 X33.948 Y20.167 E131.82555
G1 X34.7 Y20.081 E131.89708
G1 X35.137 Y20.068 E131.93839
G1 X140.107 Y20.071 E141.85806
G1 X140.174 Y20.046 E141.86481
G1 X140.908 Y19.858 E141.93642
G1 X141.657 Y19.749 E142.00794
G1 X142.321 Y19.718 E142.07076
G1 X188.958 Y19.729 E146.47796
G1 X189.714 Y19.769 E146.5495
G1 X190.462 Y19.889 E146.62109
G1 X191.193 Y20.087 E146.69266
G1 X191.899 Y20.36 E146.76419
G1 X192.572 Y20.707 E146.83574
G1 X193.205 Y21.123 E146.90732
G1 X194.064 Y21.865 E147.01459
G1 X194.283 Y22.087 E147.04406
G1 X194.786 Y22.654 E147.11568
G1 X195.226 Y23.27 E147.18722
G1 X195.598 Y23.929 E147.25873
G1 X195.9 Y24.624 E147.33034
G1 X196.126 Y25.347 E147.40193
G1 X196.275 Y26.09 E147.47354
G1 X196.35 Y27.126 E147.5717
G1 X196.35 Y195.898 E163.52065
G1 X196.31 Y196.654 E163.59219
G1 X196.191 Y197.402 E163.66377
G1 X195.993 Y198.133 E163.73534
G1 X195.719 Y198.84 E163.80699
G1 X195.373 Y199.513 E163.8785
G1 X194.957 Y200.146 E163.95008
G1 X194.271 Y200.948 E164.04981
G1 X194.051 Y201.17 E164.07935
G1 X193.491 Y201.68 E164.15093
G1 X192.879 Y202.127 E164.22254
G1 X192.224 Y202.507 E164.2941
G1 X191.533 Y202.816 E164.36564
G1 X190.813 Y203.05 E164.43718
G1 X190.072 Y203.208 E164.50878
G1 X188.955 Y203.295 E164.61465
G1 X35.443 Y203.304 E179.12154
G1 X34.687 Y203.264 E179.19308
G1 X33.939 Y203.145 E179.26465
G1 X33.208 Y202.947 E179.33622
G1 X32.502 Y202.673 E179.40779
G1 X32.013 Y202.431 E179.45935
G1 X31.855 Y202.345 E179.47635
G1 X31.21 Y201.948 E179.54792
G1 X30.61 Y201.486 E179.61948
G1 X30.062 Y200.963 E179.69107
G1 X29.366 Y200.098 E179.79599
G1 X28.298 Y198.539 E179.97457
G1 X27.903 Y197.892 E180.0462
G1 X27.579 Y197.208 E180.11772
G1 X27.329 Y196.493 E180.1893
G1 X27.176 Y195.866 E180.25029
G1 X26.784 Y193.869 E180.44261
G1 X26.678 Y193.119 E180.51419
G1 X26.65 Y192.487 E180.57397
G1 X26.656 Y30.208 E195.90934
G1 X26.696 Y29.451 E195.98097
G1 X26.795 Y28.805 E196.04273
G1 X27.058 Y27.486 E196.16983
G1 X27.245 Y26.752 E196.24141
G1 X27.508 Y26.042 E196.31296
G1 X27.774 Y25.492 E196.3707
G1 X28.57 Y24.011 E196.52959
G1 X28.963 Y23.364 E196.60112
G1 X29.423 Y22.762 E196.67272
G0 F4500 X29.713 Y22.961
G1 F1800 X30.224 Y22.427 E196.74256
G1 X30.79 Y21.952 E196.81239
G1 X31.099 Y21.733 E196.84818
G1 X31.346 Y21.568 E196.87625
G1 X31.981 Y21.191 E196.94604
G1 X32.654 Y20.886 E197.01586
G1 X33.355 Y20.655 E197.08561
G1 X34.078 Y20.501 E197.15547
G1 X35.137 Y20.418 E197.25585
G1 X140.184 Y20.421 E207.18279
G1 X140.489 Y20.318 E207.21321
G1 X141.21 Y20.159 E207.28298
G1 X141.945 Y20.078 E207.35286
G1 X142.321 Y20.068 E207.38841
G1 X188.958 Y20.079 E211.7956
G1 X189.695 Y20.119 E211.86535
G1 X190.424 Y20.239 E211.93517
G1 X191.136 Y20.436 E212.00498
G1 X191.822 Y20.71 E212.07479
G1 X192.475 Y21.056 E212.14462
G1 X193.086 Y21.47 E212.21437
G1 X193.815 Y22.111 E212.3061
G1 X194.034 Y22.333 E212.33557
G1 X194.523 Y22.886 E212.40533
G1 X194.95 Y23.489 E212.47516
G1 X195.309 Y24.134 E212.54491
G1 X195.597 Y24.815 E212.61479
G1 X195.809 Y25.522 E212.68454
G1 X195.943 Y26.249 E212.7544
G1 X196 Y27.126 E212.83745
G1 X196 Y195.898 E228.7864
G1 X195.96 Y196.636 E228.85625
G1 X195.841 Y197.364 E228.92595
G1 X195.643 Y198.076 E228.99579
G1 X195.37 Y198.762 E229.06556
G1 X195.024 Y199.415 E229.1354
G1 X194.61 Y200.027 E229.20522
G1 X194.023 Y200.702 E229.28976
G1 X193.803 Y200.924 E229.31929
G1 X193.255 Y201.42 E229.38914
G1 X192.657 Y201.854 E229.45897
G1 X192.016 Y202.22 E229.52872
G1 X191.339 Y202.515 E229.59851
G1 X190.634 Y202.735 E229.6683
G1 X189.909 Y202.878 E229.73813
G1 X188.955 Y202.945 E229.8285
G1 X35.443 Y202.954 E244.33539
G1 X34.706 Y202.914 E244.40514
G1 X33.977 Y202.795 E244.47494
G1 X33.265 Y202.597 E244.54478
G1 X32.579 Y202.324 E244.61455
G1 X32.18 Y202.124 E244.65673
G1 X32.022 Y202.038 E244.67373
G1 X31.393 Y201.65 E244.74356
G1 X30.81 Y201.196 E244.81339
G1 X30.28 Y200.683 E244.8831
G1 X29.654 Y199.9 E244.97783
G1 X28.586 Y198.341 E245.15641
G1 X28.203 Y197.71 E245.22617
G1 X27.889 Y197.041 E245.296
G1 X27.65 Y196.342 E245.36581
G1 X27.52 Y195.799 E245.41858
G1 X27.128 Y193.802 E245.61089
G1 X27.025 Y193.07 E245.68075
G1 X27 Y192.487 E245.73589
G1 X27.006 Y30.208 E261.07126
G1 X27.046 Y29.47 E261.1411
G1 X27.138 Y28.873 E261.19819
G1 X27.401 Y27.554 E261.32528
G1 X27.584 Y26.839 E261.39503
G1 X27.844 Y26.147 E261.46489
G1 X28.082 Y25.658 E261.51628
G1 X28.878 Y24.177 E261.67517
G1 X29.263 Y23.546 E261.74502
G1 X29.713 Y22.961 E261.81477
G0 F4500 X30.003 Y23.16
G1 F1800 X30.504 Y22.644 E261.88273
G1 X31.293 Y22.024 E261.97756
G1 X31.54 Y21.859 E262.00563
G1 X32.16 Y21.493 E262.07367
G1 X32.816 Y21.198 E262.14164
G1 X33.501 Y20.978 E262.20963
G1 X34.206 Y20.835 E262.27761
G1 X35.137 Y20.768 E262.36581
G1 X140.228 Y20.771 E272.29691
G1 X140.8 Y20.599 E272.35336
G1 X141.508 Y20.469 E272.42138
G1 X142.321 Y20.418 E272.49836
G1 X188.958 Y20.429 E276.90556
G1 X189.676 Y20.469 E276.97352
G1 X190.385 Y20.589 E277.04147
G1 X191.077 Y20.786 E277.10946
G1 X191.743 Y21.059 E277.17748
G1 X192.374 Y21.405 E277.24549
G1 X192.963 Y21.818 E277.31347
G1 X193.566 Y22.357 E277.3899
G1 X193.785 Y22.579 E277.41937
G1 X194.261 Y23.118 E277.48732
G1 X194.674 Y23.707 E277.5553
G1 X195.019 Y24.338 E277.62326
G1 X195.292 Y25.004 E277.69128
G1 X195.49 Y25.696 E277.7593
G1 X195.61 Y26.405 E277.82725
G1 X195.65 Y27.126 E277.89549
G1 X195.65 Y195.898 E293.84444
G1 X195.61 Y196.616 E293.9124
G1 X195.491 Y197.326 E293.98043
G1 X195.293 Y198.018 E294.04845
G1 X195.02 Y198.683 E294.11638
G1 X194.675 Y199.315 E294.18443
G1 X194.262 Y199.904 E294.25241
G1 X193.774 Y200.456 E294.32203
G1 X193.554 Y200.678 E294.35157
G1 X193.02 Y201.16 E294.41955
G1 X192.436 Y201.58 E294.48752
G1 X191.809 Y201.932 E294.55547
G1 X191.146 Y202.213 E294.62352
G1 X190.457 Y202.418 E294.69145
G1 X189.749 Y202.546 E294.75945
G1 X188.955 Y202.595 E294.83462
G1 X35.443 Y202.604 E309.3415
G1 X34.725 Y202.564 E309.40946
G1 X34.016 Y202.445 E309.4774
G1 X33.324 Y202.247 E309.54542
G1 X32.347 Y201.816 E309.64633
G1 X32.189 Y201.73 E309.66333
G1 X31.578 Y201.352 E309.73122
G1 X31.012 Y200.908 E309.7992
G1 X30.498 Y200.403 E309.8673
G1 X29.943 Y199.702 E309.95179
G1 X28.875 Y198.143 E310.13037
G1 X28.502 Y197.528 E310.19834
G1 X28.2 Y196.875 E310.26633
G1 X27.972 Y196.193 E310.33429
G1 X27.863 Y195.731 E310.37914
G1 X27.471 Y193.734 E310.57146
G1 X27.372 Y193.022 E310.63939
G1 X27.35 Y192.487 E310.68999
G1 X27.356 Y30.208 E326.02536
G1 X27.396 Y29.489 E326.09341
G1 X27.481 Y28.942 E326.14572
G1 X27.744 Y27.623 E326.27282
G1 X27.924 Y26.926 E326.34085
G1 X28.18 Y26.254 E326.4088
G1 X28.391 Y25.824 E326.45407
G1 X29.187 Y24.343 E326.61296
G1 X29.562 Y23.729 E326.68094
G1 X30.003 Y23.16 E326.74897
G0 F4500 X30.292 Y23.361
G1 F1800 X30.784 Y22.863 E326.81513
G1 X31.488 Y22.315 E326.89944
G1 X31.735 Y22.15 E326.92751
G1 X32.338 Y21.795 E326.99363
G1 X32.977 Y21.511 E327.05971
G1 X33.645 Y21.302 E327.12586
G1 X34.332 Y21.171 E327.19195
G1 X35.137 Y21.118 E327.26818
G1 X140.289 Y21.121 E337.20505
G1 X140.43 Y21.066 E337.21935
G1 X141.107 Y20.889 E337.28548
G1 X141.8 Y20.79 E337.35163
G1 X142.32 Y20.768 E337.40082
G1 X188.957 Y20.779 E341.80801
G1 X189.656 Y20.819 E341.87418
G1 X190.345 Y20.939 E341.94027
G1 X191.017 Y21.136 E342.00644
G1 X191.661 Y21.409 E342.07254
G1 X192.27 Y21.753 E342.13864
G1 X192.836 Y22.165 E342.2048
G1 X193.316 Y22.603 E342.2662
G1 X193.535 Y22.825 E342.29567
G1 X193.998 Y23.35 E342.36182
G1 X194.397 Y23.925 E342.42796
G1 X194.728 Y24.541 E342.49404
G1 X194.986 Y25.191 E342.56013
G1 X195.169 Y25.867 E342.62631
G1 X195.274 Y26.558 E342.69236
G1 X195.3 Y27.126 E342.74609
G1 X195.3 Y195.898 E358.69505
G1 X195.26 Y196.597 E358.76121
G1 X195.141 Y197.286 E358.82729
G1 X194.943 Y197.957 E358.8934
G1 X194.671 Y198.602 E358.95955
G1 X194.327 Y199.211 E359.02565
G1 X193.915 Y199.777 E359.0918
G1 X193.526 Y200.209 E359.14674
G1 X193.306 Y200.431 E359.17627
G1 X192.785 Y200.899 E359.24246
G1 X192.215 Y201.305 E359.30859
G1 X191.603 Y201.643 E359.37466
G1 X190.956 Y201.909 E359.44076
G1 X190.282 Y202.099 E359.50694
G1 X189.592 Y202.212 E359.57301
G1 X188.955 Y202.245 E359.63329
G1 X35.443 Y202.254 E374.14017
G1 X34.745 Y202.214 E374.20624
G1 X34.055 Y202.095 E374.27241
G1 X33.384 Y201.898 E374.3385
G1 X32.515 Y201.509 E374.42847
G1 X32.357 Y201.423 E374.44547
G1 X31.762 Y201.054 E374.51163
G1 X31.214 Y200.619 E374.57775
G1 X30.718 Y200.125 E374.6439
G1 X30.232 Y199.505 E374.71835
G1 X29.164 Y197.946 E374.89693
G1 X28.802 Y197.347 E374.96307
G1 X28.511 Y196.71 E375.02925
G1 X28.294 Y196.045 E375.09535
G1 X28.207 Y195.664 E375.13228
G1 X27.815 Y193.667 E375.3246
G1 X27.719 Y192.974 E375.39071
G1 X27.7 Y192.487 E375.43677
G1 X27.706 Y30.208 E390.77214
G1 X27.746 Y29.509 E390.8383
G1 X27.824 Y29.01 E390.88603
G1 X28.087 Y27.691 E391.01313
G1 X28.263 Y27.014 E391.07923
G1 X28.515 Y26.361 E391.14537
G1 X28.699 Y25.989 E391.18459
G1 X29.495 Y24.508 E391.34348
G1 X29.861 Y23.912 E391.40958
G1 X30.292 Y23.361 E391.47568
G0 F4500 X30.581 Y23.563
G1 F1800 X31.063 Y23.083 E391.53997
G1 X31.682 Y22.606 E391.61381
G1 X31.929 Y22.441 E391.64188
G1 X32.515 Y22.097 E391.7061
G1 X33.138 Y21.825 E391.77034
G1 X33.788 Y21.628 E391.83452
G1 X34.457 Y21.508 E391.89875
G1 X35.137 Y21.468 E391.96312
G1 X140.359 Y21.471 E401.9066
G1 X140.746 Y21.336 E401.94533
G1 X141.409 Y21.19 E402.00949
G1 X142.32 Y21.118 E402.09585
G1 X188.957 Y21.129 E406.50304
G1 X189.636 Y21.169 E406.56732
G1 X190.304 Y21.289 E406.63146
G1 X190.955 Y21.486 E406.69573
G1 X191.577 Y21.758 E406.75988
G1 X192.163 Y22.101 E406.82405
G1 X192.705 Y22.511 E406.88827
G1 X193.067 Y22.848 E406.93501
G1 X193.286 Y23.07 E406.96448
G1 X193.734 Y23.581 E407.0287
G1 X194.119 Y24.141 E407.09292
G1 X194.435 Y24.742 E407.15709
G1 X194.679 Y25.377 E407.22137
G1 X194.846 Y26.035 E407.28552
G1 X194.935 Y26.709 E407.34977
G1 X194.95 Y27.126 E407.3892
G1 X194.95 Y195.898 E423.33816
G1 X194.91 Y196.576 E423.40234
G1 X194.791 Y197.245 E423.46655
G1 X194.594 Y197.895 E423.53074
G1 X194.322 Y198.518 E423.59498
G1 X193.978 Y199.104 E423.65919
G1 X193.568 Y199.646 E423.72341
G1 X193.277 Y199.963 E423.76408
G1 X193.057 Y200.185 E423.79361
G1 X192.551 Y200.639 E423.85786
G1 X191.996 Y201.03 E423.92201
G1 X191.398 Y201.353 E423.98624
G1 X190.766 Y201.604 E424.0505
G1 X190.11 Y201.778 E424.11464
G1 X189.437 Y201.875 E424.17889
G1 X188.955 Y201.895 E424.22448
G1 X35.443 Y201.904 E438.73136
G1 X34.765 Y201.864 E438.79555
G1 X34.096 Y201.745 E438.85976
G1 X33.446 Y201.548 E438.92394
G1 X32.682 Y201.201 E439.00324
G1 X32.524 Y201.115 E439.02024
G1 X31.948 Y200.756 E439.08438
G1 X31.417 Y200.331 E439.14865
G1 X30.94 Y199.847 E439.21287
G1 X30.521 Y199.307 E439.27746
G1 X29.453 Y197.748 E439.45604
G1 X29.102 Y197.166 E439.52027
