;FLAVOR:UltiGCode
;TIME:14342
;MATERIAL:48608
;MATERIAL2:0
;NOZZLE_DIAMETER:0.4
;Generated with Cura_SteamEngine 3.6.0
M82 ;absolute extrusion mode

G92 E0
G10
;LAYER_COUNT:70
;LAYER:0
M107
G0 F4500 X31.152 Y21.187 Z0.27
;TYPE:SKIRT
G11
G1 F1800 X31.635 Y20.558 E0.07494
G1 X32.062 Y20.097 E0.13432
G1 X32.165 Y19.994 E0.14809
G1 X32.753 Y19.461 E0.22309
G1 X33.392 Y18.991 E0.29805
G1 X34.076 Y18.588 E0.37307
G1 X34.796 Y18.255 E0.44803
G1 X35.546 Y17.997 E0.52299
G1 X36.319 Y17.815 E0.59803
G1 X37.105 Y17.712 E0.67294
G1 X37.733 Y17.687 E0.73234
G1 X177.477 Y17.687 E13.93815
G1 X178.269 Y17.727 E14.01308
G1 X179.054 Y17.846 E14.08811
G1 X179.822 Y18.044 E14.16306
G1 X180.567 Y18.319 E14.23811
G1 X181.28 Y18.666 E14.31304
G1 X181.564 Y18.842 E14.34462
G1 X181.756 Y18.706 E14.36685
G1 X182.447 Y18.316 E14.44183
G1 X183.174 Y17.998 E14.51682
G1 X183.929 Y17.754 E14.5918
G1 X184.705 Y17.588 E14.66679
G1 X185.494 Y17.501 E14.74181
G1 X185.964 Y17.487 E14.78624
G1 X197.56 Y17.487 E15.88206
G1 X198.352 Y17.527 E15.957
G1 X199.137 Y17.646 E16.03203
G1 X199.905 Y17.844 E16.10698
G1 X200.65 Y18.119 E16.18203
G1 X201.363 Y18.466 E16.25696
G1 X202.038 Y18.884 E16.33199
G1 X202.667 Y19.367 E16.40693
G1 X203.128 Y19.794 E16.46631
G1 X203.348 Y20.014 E16.49571
G1 X203.881 Y20.602 E16.57071
G1 X204.351 Y21.241 E16.64567
G1 X204.754 Y21.925 E16.72069
G1 X205.087 Y22.645 E16.79566
G1 X205.345 Y23.395 E16.87061
G1 X205.527 Y24.168 E16.94566
G1 X205.63 Y24.954 E17.02057
G1 X205.655 Y25.582 E17.07996
G1 X205.655 Y105.492 E24.63146
G1 X205.615 Y106.284 E24.7064
G1 X205.496 Y107.069 E24.78143
G1 X205.298 Y107.837 E24.85638
G1 X205.023 Y108.582 E24.93142
G1 X204.676 Y109.295 E25.00636
G1 X204.258 Y109.97 E25.08138
G1 X203.775 Y110.599 E25.15633
G1 X203.348 Y111.06 E25.21571
G1 X203.128 Y111.28 E25.24511
G1 X202.54 Y111.813 E25.32011
G1 X201.901 Y112.283 E25.39507
G1 X201.217 Y112.686 E25.47009
G1 X200.497 Y113.019 E25.54505
G1 X199.747 Y113.277 E25.62001
G1 X198.974 Y113.459 E25.69505
G1 X198.188 Y113.562 E25.76996
G1 X197.56 Y113.587 E25.82936
G1 X185.965 Y113.587 E26.92508
G1 X185.173 Y113.547 E27.00002
G1 X184.388 Y113.428 E27.07505
G1 X183.62 Y113.23 E27.15
G1 X182.875 Y112.955 E27.22505
G1 X182.162 Y112.608 E27.29998
G1 X181.56 Y112.235 E27.36691
G1 X181.134 Y112.486 E27.41363
G1 X180.414 Y112.819 E27.4886
G1 X179.664 Y113.077 E27.56355
G1 X178.891 Y113.259 E27.63859
G1 X178.105 Y113.362 E27.71351
G1 X177.474 Y113.387 E27.77318
G1 X61.254 Y113.344 E38.75597
G1 X60.462 Y113.304 E38.83091
G1 X59.677 Y113.184 E38.90596
G1 X58.909 Y112.986 E38.98091
G1 X58.164 Y112.711 E39.05595
G1 X57.451 Y112.363 E39.13093
G1 X56.777 Y111.945 E39.20587
G1 X56.148 Y111.462 E39.28082
G1 X55.571 Y110.917 E39.35582
G1 X55.051 Y110.317 E39.43085
G1 X54.731 Y109.876 E39.48234
G1 X54.032 Y108.842 E39.60029
G1 X52.636 Y107.101 E39.81117
G1 X51.495 Y105.917 E39.96656
G1 X50.343 Y104.908 E40.11128
G1 X48.399 Y103.507 E40.33772
G1 X47.094 Y102.755 E40.48005
G1 X45.736 Y102.098 E40.62261
G1 X43.348 Y101.236 E40.86253
G1 X41.892 Y100.842 E41.00507
G1 X38.428 Y100.4 E41.33507
G1 X37.379 Y100.353 E41.4343
G1 X36.589 Y100.278 E41.50929
G1 X35.81 Y100.124 E41.58433
G1 X35.052 Y99.892 E41.65925
G1 X34.32 Y99.585 E41.73426
G1 X33.623 Y99.206 E41.80923
G1 X32.967 Y98.759 E41.88425
G1 X32.36 Y98.248 E41.95923
G1 X32.023 Y97.914 E42.00407
G1 X31.925 Y97.811 E42.0175
G1 X31.407 Y97.21 E42.09248
G1 X30.953 Y96.559 E42.16748
G1 X30.567 Y95.866 E42.24244
G1 X30.252 Y95.137 E42.31749
G1 X30.013 Y94.381 E42.39242
G1 X29.85 Y93.604 E42.46744
G1 X29.767 Y92.815 E42.54242
G1 X29.755 Y92.383 E42.58325
G1 X29.755 Y25.665 E48.88811
G1 X29.795 Y24.873 E48.96305
G1 X29.914 Y24.088 E49.03808
G1 X30.112 Y23.32 E49.11302
G1 X30.387 Y22.575 E49.18807
G1 X30.734 Y21.862 E49.263
G1 X31.152 Y21.187 E49.33803
G0 F4500 X31.5 Y21.301
G1 F1800 X31.982 Y20.693 E49.41135
G1 X32.309 Y20.344 E49.45655
G1 X32.412 Y20.241 E49.47031
G1 X32.988 Y19.722 E49.54358
G1 X33.614 Y19.264 E49.61688
G1 X34.285 Y18.874 E49.69022
G1 X34.991 Y18.554 E49.76347
G1 X35.727 Y18.309 E49.83678
G1 X36.485 Y18.141 E49.91015
G1 X37.255 Y18.052 E49.9834
G1 X37.733 Y18.037 E50.02859
G1 X177.477 Y18.037 E63.2344
G1 X178.252 Y18.077 E63.30773
G1 X179.018 Y18.196 E63.38099
G1 X179.768 Y18.394 E63.45429
G1 X180.494 Y18.668 E63.52762
G1 X181.187 Y19.015 E63.60086
G1 X181.571 Y19.26 E63.64391
G1 X182.092 Y18.91 E63.70322
G1 X182.776 Y18.546 E63.77644
G1 X183.495 Y18.254 E63.84978
G1 X184.24 Y18.037 E63.9231
G1 X185.003 Y17.899 E63.99638
G1 X185.964 Y17.837 E64.08738
G1 X197.56 Y17.837 E65.1832
G1 X198.335 Y17.877 E65.25654
G1 X199.101 Y17.996 E65.32979
G1 X199.851 Y18.194 E65.4031
G1 X200.577 Y18.468 E65.47643
G1 X201.27 Y18.815 E65.54967
G1 X201.924 Y19.232 E65.62296
G1 X202.532 Y19.714 E65.69628
G1 X202.881 Y20.041 E65.74148
G1 X203.101 Y20.261 E65.77088
G1 X203.62 Y20.837 E65.84415
G1 X204.078 Y21.463 E65.91745
G1 X204.468 Y22.134 E65.99079
G1 X204.788 Y22.84 E66.06404
G1 X205.033 Y23.576 E66.13734
G1 X205.201 Y24.334 E66.21071
G1 X205.29 Y25.104 E66.28396
G1 X205.305 Y25.582 E66.32916
G1 X205.305 Y105.492 E73.88065
G1 X205.265 Y106.267 E73.95399
G1 X205.146 Y107.033 E74.02724
G1 X204.948 Y107.783 E74.10055
G1 X204.674 Y108.509 E74.17388
G1 X204.327 Y109.202 E74.24712
G1 X203.91 Y109.856 E74.32041
G1 X203.428 Y110.464 E74.39373
G1 X203.101 Y110.813 E74.43893
G1 X202.881 Y111.033 E74.46833
G1 X202.305 Y111.552 E74.5416
G1 X201.679 Y112.01 E74.6149
G1 X201.008 Y112.4 E74.68824
G1 X200.302 Y112.72 E74.76149
G1 X199.566 Y112.965 E74.83479
G1 X198.808 Y113.133 E74.90816
G1 X198.038 Y113.222 E74.98141
G1 X197.56 Y113.237 E75.02661
G1 X185.965 Y113.237 E76.12233
G1 X185.19 Y113.197 E76.19567
G1 X184.424 Y113.078 E76.26892
G1 X183.674 Y112.88 E76.34223
G1 X182.948 Y112.606 E76.41556
G1 X182.255 Y112.259 E76.4888
G1 X181.601 Y111.842 E76.56209
G1 X181.576 Y111.822 E76.56512
G1 X180.925 Y112.2 E76.63626
G1 X180.219 Y112.52 E76.70951
G1 X179.483 Y112.765 E76.78281
G1 X178.725 Y112.933 E76.85618
G1 X177.955 Y113.022 E76.92943
G1 X177.474 Y113.037 E76.97491
G1 X61.254 Y112.994 E87.9577
G1 X60.48 Y112.954 E88.03094
G1 X59.713 Y112.834 E88.1043
G1 X58.963 Y112.636 E88.17761
G1 X58.238 Y112.362 E88.25085
G1 X57.544 Y112.014 E88.32421
G1 X56.89 Y111.597 E88.39751
G1 X56.283 Y111.115 E88.47076
G1 X55.728 Y110.573 E88.54407
G1 X55.021 Y109.68 E88.6517
G1 X54.315 Y108.634 E88.77096
G1 X52.898 Y106.869 E88.98485
G1 X51.737 Y105.663 E89.14305
G1 X50.564 Y104.636 E89.29038
G1 X48.591 Y103.215 E89.52015
G1 X47.248 Y102.441 E89.66663
G1 X45.875 Y101.777 E89.81076
G1 X43.451 Y100.901 E90.05432
G1 X41.961 Y100.498 E90.20019
G1 X38.465 Y100.052 E90.53324
G1 X37.394 Y100.004 E90.63455
G1 X36.622 Y99.929 E90.70785
G1 X35.862 Y99.776 E90.78111
G1 X35.121 Y99.545 E90.85446
G1 X34.409 Y99.239 E90.92769
G1 X33.731 Y98.862 E91.001
G1 X33.096 Y98.416 E91.07433
G1 X32.276 Y97.673 E91.1789
G1 X32.178 Y97.57 E91.19233
G1 X31.673 Y96.981 E91.26565
G1 X31.232 Y96.344 E91.33887
G1 X30.858 Y95.664 E91.4122
G1 X30.556 Y94.95 E91.48547
G1 X30.33 Y94.208 E91.55876
G1 X30.181 Y93.447 E91.63204
G1 X30.105 Y92.383 E91.73285
G1 X30.105 Y25.665 E98.0377
G1 X30.145 Y24.89 E98.11103
G1 X30.264 Y24.124 E98.18429
G1 X30.462 Y23.374 E98.25759
G1 X30.736 Y22.648 E98.33092
G1 X31.083 Y21.955 E98.40416
G1 X31.5 Y21.301 E98.47746
G0 F4500 X31.848 Y21.417
G1 F1800 X32.557 Y20.592 E98.58026
G1 X32.66 Y20.489 E98.59402
G1 X33.223 Y19.982 E98.66562
G1 X33.836 Y19.538 E98.73715
G1 X34.493 Y19.16 E98.80878
G1 X35.185 Y18.854 E98.88028
G1 X35.907 Y18.623 E98.95191
G1 X36.648 Y18.469 E99.02344
G1 X37.733 Y18.387 E99.12626
G1 X177.477 Y18.387 E112.33207
G1 X178.233 Y18.427 E112.40361
G1 X178.981 Y18.546 E112.47519
G1 X179.712 Y18.744 E112.54675
G1 X180.419 Y19.018 E112.61841
G1 X181.092 Y19.364 E112.68992
G1 X181.586 Y19.689 E112.7458
G1 X181.787 Y19.528 E112.77014
G1 X182.426 Y19.12 E112.84178
G1 X183.103 Y18.782 E112.91329
G1 X183.813 Y18.517 E112.9849
G1 X184.546 Y18.328 E113.05644
G1 X185.296 Y18.218 E113.12807
G1 X185.964 Y18.187 E113.19126
G1 X197.56 Y18.187 E114.28709
G1 X198.316 Y18.227 E114.35863
G1 X199.064 Y18.346 E114.4302
G1 X199.795 Y18.544 E114.50177
G1 X200.502 Y18.818 E114.57342
G1 X201.175 Y19.164 E114.64494
G1 X201.808 Y19.58 E114.71652
G1 X202.633 Y20.289 E114.81931
G1 X202.853 Y20.509 E114.84871
G1 X203.36 Y21.072 E114.92031
G1 X203.804 Y21.685 E114.99184
G1 X204.182 Y22.342 E115.06347
G1 X204.488 Y23.034 E115.13497
G1 X204.719 Y23.756 E115.20661
G1 X204.873 Y24.497 E115.27813
G1 X204.955 Y25.582 E115.38095
G1 X204.955 Y105.492 E122.93245
G1 X204.915 Y106.248 E123.00399
G1 X204.796 Y106.996 E123.07556
G1 X204.598 Y107.727 E123.14713
G1 X204.324 Y108.434 E123.21879
G1 X203.978 Y109.107 E123.2903
G1 X203.562 Y109.74 E123.36188
G1 X202.853 Y110.565 E123.46467
G1 X202.633 Y110.785 E123.49408
G1 X202.07 Y111.292 E123.56567
G1 X201.457 Y111.736 E123.6372
G1 X200.8 Y112.114 E123.70883
G1 X200.108 Y112.42 E123.78033
G1 X199.386 Y112.651 E123.85197
G1 X198.645 Y112.805 E123.92349
G1 X197.56 Y112.887 E124.02631
G1 X185.965 Y112.887 E125.12204
G1 X185.209 Y112.847 E125.19358
G1 X184.461 Y112.728 E125.26516
G1 X183.73 Y112.53 E125.33673
G1 X183.023 Y112.256 E125.40838
G1 X182.35 Y111.91 E125.47989
G1 X181.717 Y111.494 E125.55147
G1 X181.583 Y111.384 E125.56785
G1 X181.374 Y111.536 E125.59228
G1 X180.717 Y111.914 E125.6639
G1 X180.025 Y112.22 E125.73541
G1 X179.303 Y112.451 E125.80704
G1 X178.562 Y112.605 E125.87856
G1 X177.474 Y112.687 E125.98167
G1 X61.254 Y112.644 E136.96446
G1 X60.498 Y112.604 E137.036
G1 X59.75 Y112.484 E137.10759
G1 X59.019 Y112.286 E137.17916
G1 X58.313 Y112.012 E137.25073
G1 X57.64 Y111.665 E137.32228
G1 X57.007 Y111.25 E137.39381
G1 X56.421 Y110.769 E137.46545
G1 X55.889 Y110.23 E137.53702
G1 X55.311 Y109.485 E137.62613
G1 X54.593 Y108.421 E137.74743
G1 X53.165 Y106.643 E137.96293
G1 X51.972 Y105.404 E138.12547
G1 X50.782 Y104.361 E138.27501
G1 X48.777 Y102.917 E138.5085
G1 X47.425 Y102.138 E138.65596
G1 X46.002 Y101.449 E138.80536
G1 X43.565 Y100.569 E139.05021
G1 X42.031 Y100.155 E139.20036
G1 X38.488 Y99.702 E139.5379
G1 X37.41 Y99.654 E139.63988
G1 X36.656 Y99.58 E139.71147
G1 X35.914 Y99.428 E139.78305
G1 X35.192 Y99.198 E139.85465
G1 X34.499 Y98.893 E139.9262
G1 X33.842 Y98.517 E139.99774
G1 X33.228 Y98.074 E140.06929
G1 X32.53 Y97.432 E140.15891
G1 X32.432 Y97.329 E140.17234
G1 X31.94 Y96.753 E140.24393
G1 X31.511 Y96.129 E140.31549
G1 X31.15 Y95.463 E140.38708
G1 X30.861 Y94.763 E140.45864
G1 X30.648 Y94.036 E140.53023
G1 X30.513 Y93.291 E140.60178
G1 X30.455 Y92.383 E140.68776
G1 X30.455 Y25.665 E146.99261
G1 X30.495 Y24.909 E147.06415
G1 X30.614 Y24.161 E147.13573
G1 X30.812 Y23.43 E147.2073
G1 X31.086 Y22.723 E147.27895
G1 X31.432 Y22.05 E147.35046
G1 X31.848 Y21.417 E147.42204
G0 F4500 X32.195 Y21.536
G1 F1800 X32.804 Y20.839 E147.50951
G1 X32.907 Y20.736 E147.52327
G1 X33.457 Y20.243 E147.59307
G1 X34.057 Y19.812 E147.66289
G1 X34.7 Y19.448 E147.73271
G1 X35.378 Y19.156 E147.80247
G1 X36.084 Y18.939 E147.87227
G1 X36.81 Y18.8 E147.94212
G1 X37.733 Y18.737 E148.02955
G1 X177.477 Y18.737 E161.23535
G1 X178.215 Y18.777 E161.3052
G1 X178.943 Y18.896 E161.37491
G1 X179.655 Y19.094 E161.44474
G1 X180.341 Y19.367 E161.51452
G1 X180.994 Y19.713 E161.58435
G1 X181.597 Y20.121 E161.65315
G1 X182.126 Y19.718 E161.716
G1 X182.758 Y19.337 E161.78574
G1 X183.428 Y19.026 E161.85554
G1 X184.128 Y18.789 E161.92538
G1 X184.849 Y18.629 E161.99517
G1 X185.583 Y18.548 E162.06495
G1 X185.964 Y18.537 E162.10097
G1 X197.56 Y18.537 E163.1968
G1 X198.298 Y18.577 E163.26664
G1 X199.026 Y18.696 E163.33635
G1 X199.738 Y18.894 E163.40618
G1 X200.424 Y19.167 E163.47596
G1 X201.077 Y19.513 E163.54579
G1 X201.689 Y19.927 E163.61562
G1 X202.386 Y20.536 E163.70308
G1 X202.606 Y20.756 E163.73248
G1 X203.099 Y21.306 E163.80228
G1 X203.53 Y21.906 E163.8721
G1 X203.894 Y22.549 E163.94192
G1 X204.186 Y23.227 E164.01168
G1 X204.403 Y23.933 E164.08148
G1 X204.542 Y24.659 E164.15133
G1 X204.605 Y25.582 E164.23876
G1 X204.605 Y105.492 E171.79025
G1 X204.565 Y106.23 E171.8601
G1 X204.446 Y106.958 E171.9298
G1 X204.248 Y107.67 E171.99964
G1 X203.975 Y108.356 E172.06941
G1 X203.629 Y109.009 E172.13925
G1 X203.215 Y109.621 E172.20907
G1 X202.606 Y110.318 E172.29654
G1 X202.386 Y110.538 E172.32594
G1 X201.836 Y111.031 E172.39574
G1 X201.236 Y111.462 E172.46555
G1 X200.593 Y111.826 E172.53538
G1 X199.915 Y112.118 E172.60514
G1 X199.209 Y112.335 E172.67494
G1 X198.483 Y112.474 E172.74479
G1 X197.56 Y112.537 E172.83222
G1 X185.965 Y112.537 E173.92794
G1 X185.227 Y112.497 E173.99779
G1 X184.499 Y112.378 E174.0675
G1 X183.787 Y112.18 E174.13733
G1 X183.101 Y111.907 E174.2071
G1 X182.448 Y111.561 E174.27694
G1 X181.836 Y111.147 E174.34676
G1 X181.596 Y110.944 E174.37647
G1 X181.153 Y111.262 E174.428
G1 X180.51 Y111.626 E174.49783
G1 X179.832 Y111.918 E174.56759
G1 X179.126 Y112.135 E174.63738
G1 X178.4 Y112.274 E174.70724
G1 X177.474 Y112.337 E174.79495
G1 X61.254 Y112.294 E185.77774
G1 X60.517 Y112.254 E185.84749
G1 X59.788 Y112.134 E185.9173
G1 X59.076 Y111.936 E185.98714
G1 X58.39 Y111.663 E186.05691
G1 X57.738 Y111.317 E186.12666
G1 X57.126 Y110.902 E186.19654
G1 X56.563 Y110.424 E186.26633
G1 X56.055 Y109.888 E186.33612
G1 X55.601 Y109.289 E186.40715
G1 X54.875 Y108.214 E186.52973
G1 X53.428 Y106.411 E186.7482
G1 X52.214 Y105.151 E186.91355
G1 X51.003 Y104.09 E187.0657
G1 X48.965 Y102.622 E187.30305
G1 X47.59 Y101.829 E187.45305
G1 X46.137 Y101.126 E187.60558
G1 X43.665 Y100.234 E187.85393
G1 X42.102 Y99.811 E188.00695
G1 X38.513 Y99.352 E188.34887
G1 X37.425 Y99.304 E188.45179
G1 X36.69 Y99.232 E188.52158
G1 X35.967 Y99.08 E188.59139
G1 X35.265 Y98.851 E188.66117
G1 X34.592 Y98.548 E188.73092
G1 X33.955 Y98.173 E188.80077
G1 X33.362 Y97.732 E188.87061
G1 X32.783 Y97.19 E188.94556
G1 X32.685 Y97.087 E188.95899
G1 X32.206 Y96.526 E189.0287
G1 X31.79 Y95.915 E189.09855
G1 X31.443 Y95.263 E189.16835
G1 X31.168 Y94.578 E189.2381
G1 X30.968 Y93.867 E189.3079
G1 X30.847 Y93.138 E189.37773
G1 X30.805 Y92.383 E189.44919
G1 X30.805 Y25.665 E195.75404
G1 X30.845 Y24.927 E195.82389
G1 X30.964 Y24.199 E195.8936
G1 X31.162 Y23.487 E195.96343
G1 X31.435 Y22.801 E196.0332
G1 X31.781 Y22.148 E196.10304
G1 X32.195 Y21.536 E196.17286
G0 F4500 X32.13 Y22.248
G1 F1800 X32.543 Y21.659 E196.24084
G1 X33.051 Y21.086 E196.31321
G1 X33.154 Y20.983 E196.32697
G1 X33.691 Y20.504 E196.39498
G1 X34.277 Y20.087 E196.46294
G1 X34.906 Y19.737 E196.53097
G1 X35.569 Y19.459 E196.5989
G1 X36.26 Y19.257 E196.66694
G1 X36.968 Y19.132 E196.73488
G1 X37.733 Y19.087 E196.80729
G1 X177.477 Y19.087 E210.0131
G1 X178.195 Y19.127 E210.08106
G1 X178.905 Y19.246 E210.14909
G1 X179.597 Y19.444 E210.21711
G1 X180.262 Y19.717 E210.28504
G1 X180.894 Y20.062 E210.35308
G1 X181.483 Y20.475 E210.42106
G1 X181.607 Y20.585 E210.43673
G1 X181.88 Y20.337 E210.47158
G1 X182.463 Y19.915 E210.53959
G1 X183.089 Y19.56 E210.6076
G1 X183.75 Y19.277 E210.67555
G1 X184.439 Y19.069 E210.74356
G1 X185.147 Y18.939 E210.81159
G1 X185.964 Y18.887 E210.88895
G1 X197.56 Y18.887 E211.98477
G1 X198.278 Y18.927 E212.05273
G1 X198.988 Y19.046 E212.12076
G1 X199.68 Y19.244 E212.18878
G1 X200.345 Y19.517 E212.25671
G1 X200.977 Y19.862 E212.32475
G1 X201.566 Y20.275 E212.39273
G1 X202.139 Y20.783 E212.4651
G1 X202.359 Y21.003 E212.4945
G1 X202.838 Y21.54 E212.5625
G1 X203.255 Y22.126 E212.63047
G1 X203.605 Y22.755 E212.69849
G1 X203.883 Y23.418 E212.76643
G1 X204.085 Y24.109 E212.83446
G1 X204.21 Y24.817 E212.9024
G1 X204.255 Y25.582 E212.97482
G1 X204.255 Y105.492 E220.52631
G1 X204.215 Y106.21 E220.59427
G1 X204.096 Y106.92 E220.6623
G1 X203.898 Y107.612 E220.73032
G1 X203.625 Y108.277 E220.79825
G1 X203.28 Y108.909 E220.86629
G1 X202.867 Y109.498 E220.93427
G1 X202.359 Y110.071 E221.00664
G1 X202.139 Y110.291 E221.03604
G1 X201.602 Y110.77 E221.10404
G1 X201.016 Y111.187 E221.17201
G1 X200.387 Y111.537 E221.24003
G1 X199.724 Y111.815 E221.30797
G1 X199.033 Y112.017 E221.376
G1 X198.325 Y112.142 E221.44394
G1 X197.56 Y112.187 E221.51636
