;FLAVOR:UltiGCode
;TIME:21489
;MATERIAL:59247
;MATERIAL2:0
;NOZZLE_DIAMETER:0.4
;Generated with Cura_SteamEngine 3.6.0
M82 ;absolute extrusion mode

G92 E0
G10
;LAYER_COUNT:141
;LAYER:0
M107
G0 F4500 X25.53 Y20.558 Z0.27
;TYPE:SKIRT
G11
G1 F1800 X25.957 Y20.097 E0.05938
G1 X26.06 Y19.994 E0.07315
G1 X26.648 Y19.461 E0.14814
G1 X27.287 Y18.991 E0.2231
G1 X27.971 Y18.588 E0.29813
G1 X28.691 Y18.255 E0.37309
G1 X29.441 Y17.997 E0.44804
G1 X30.214 Y17.815 E0.52309
G1 X31 Y17.712 E0.598
G1 X31.628 Y17.687 E0.65739
G1 X191.372 Y17.687 E15.7532
G1 X192.164 Y17.727 E15.82814
G1 X192.949 Y17.846 E15.90317
G1 X193.717 Y18.044 E15.97812
G1 X194.462 Y18.319 E16.05317
G1 X195.175 Y18.666 E16.1281
G1 X195.85 Y19.084 E16.20313
G1 X196.479 Y19.567 E16.27807
G1 X196.94 Y19.994 E16.33745
G1 X197.043 Y20.097 E16.35122
G1 X197.576 Y20.685 E16.42622
G1 X198.046 Y21.324 E16.50118
G1 X198.449 Y22.008 E16.5762
G1 X198.782 Y22.728 E16.65116
G1 X199.04 Y23.478 E16.72611
G1 X199.222 Y24.251 E16.80116
G1 X199.325 Y25.037 E16.87607
G1 X199.35 Y25.665 E16.93547
G1 X199.35 Y197.335 E33.15828
G1 X199.31 Y198.127 E33.23322
G1 X199.191 Y198.912 E33.30825
G1 X198.993 Y199.68 E33.3832
G1 X198.718 Y200.425 E33.45824
G1 X198.371 Y201.138 E33.53318
G1 X197.953 Y201.813 E33.60821
G1 X197.47 Y202.442 E33.68315
G1 X197.043 Y202.903 E33.74253
G1 X196.94 Y203.006 E33.7563
G1 X196.352 Y203.539 E33.83129
G1 X195.713 Y204.009 E33.90625
G1 X195.029 Y204.412 E33.98128
G1 X194.309 Y204.745 E34.05624
G1 X193.559 Y205.003 E34.13119
G1 X192.786 Y205.185 E34.20624
G1 X192 Y205.288 E34.28115
G1 X191.372 Y205.313 E34.34054
G1 X31.628 Y205.313 E49.43635
G1 X30.836 Y205.273 E49.51129
G1 X30.051 Y205.154 E49.58632
G1 X29.283 Y204.956 E49.66127
G1 X28.538 Y204.681 E49.73632
G1 X27.825 Y204.334 E49.81125
G1 X27.15 Y203.916 E49.88628
G1 X26.521 Y203.433 E49.96122
G1 X26.06 Y203.006 E50.0206
G1 X25.957 Y202.903 E50.03437
G1 X25.424 Y202.315 E50.10937
G1 X24.954 Y201.676 E50.18433
G1 X24.551 Y200.992 E50.25935
G1 X24.218 Y200.272 E50.33431
G1 X23.96 Y199.522 E50.40926
G1 X23.778 Y198.749 E50.48431
G1 X23.675 Y197.963 E50.55922
G1 X23.65 Y197.335 E50.61862
G1 X23.65 Y135.091 E56.50067
G1 X23.69 Y134.299 E56.57561
G1 X23.809 Y133.514 E56.65064
G1 X24.007 Y132.746 E56.72559
G1 X24.282 Y132.001 E56.80064
G1 X24.629 Y131.288 E56.87557
G1 X25.047 Y130.613 E56.9506
G1 X25.53 Y129.984 E57.02554
G1 X25.554 Y129.958 E57.02889
G1 X25.424 Y129.815 E57.04715
G1 X24.954 Y129.176 E57.12211
G1 X24.551 Y128.492 E57.19713
G1 X24.218 Y127.772 E57.2721
G1 X23.96 Y127.022 E57.34705
G1 X23.778 Y126.249 E57.4221
G1 X23.675 Y125.463 E57.49701
G1 X23.65 Y124.835 E57.5564
G1 X23.65 Y25.665 E66.92797
G1 X23.69 Y24.873 E67.00291
G1 X23.809 Y24.088 E67.07794
G1 X24.007 Y23.32 E67.15288
G1 X24.282 Y22.575 E67.22793
G1 X24.629 Y21.862 E67.30286
G1 X25.047 Y21.187 E67.37789
G1 X25.53 Y20.558 E67.45284
G0 F4500 X25.877 Y20.693
G1 F1800 X26.204 Y20.344 E67.49803
G1 X26.307 Y20.241 E67.5118
G1 X26.883 Y19.722 E67.58506
G1 X27.509 Y19.264 E67.65836
G1 X28.18 Y18.874 E67.73171
G1 X28.886 Y18.554 E67.80496
G1 X29.622 Y18.309 E67.87826
G1 X30.38 Y18.141 E67.95163
G1 X31.15 Y18.052 E68.02488
G1 X31.628 Y18.037 E68.07007
G1 X191.372 Y18.037 E83.16588
G1 X192.147 Y18.077 E83.23922
G1 X192.913 Y18.196 E83.31247
G1 X193.663 Y18.394 E83.38577
G1 X194.389 Y18.668 E83.4591
G1 X195.082 Y19.015 E83.53234
G1 X195.736 Y19.432 E83.60564
G1 X196.344 Y19.914 E83.67896
G1 X196.693 Y20.241 E83.72416
G1 X196.796 Y20.344 E83.73792
G1 X197.315 Y20.92 E83.81119
G1 X197.773 Y21.546 E83.88449
G1 X198.163 Y22.217 E83.95783
G1 X198.483 Y22.923 E84.03108
G1 X198.728 Y23.659 E84.10439
G1 X198.896 Y24.417 E84.17776
G1 X198.985 Y25.187 E84.25101
G1 X199 Y25.665 E84.2962
G1 X199 Y197.335 E100.51901
G1 X198.96 Y198.11 E100.59235
G1 X198.841 Y198.876 E100.6656
G1 X198.643 Y199.626 E100.73891
G1 X198.369 Y200.352 E100.81224
G1 X198.022 Y201.045 E100.88548
G1 X197.605 Y201.699 E100.95878
G1 X197.123 Y202.307 E101.0321
G1 X196.796 Y202.656 E101.07729
G1 X196.693 Y202.759 E101.09106
G1 X196.117 Y203.278 E101.16432
G1 X195.491 Y203.736 E101.23762
G1 X194.82 Y204.126 E101.31097
G1 X194.114 Y204.446 E101.38422
G1 X193.378 Y204.691 E101.45752
G1 X192.62 Y204.859 E101.53089
G1 X191.85 Y204.948 E101.60414
G1 X191.372 Y204.963 E101.64933
G1 X31.628 Y204.963 E116.74514
G1 X30.853 Y204.923 E116.81848
G1 X30.087 Y204.804 E116.89173
G1 X29.337 Y204.606 E116.96503
G1 X28.611 Y204.332 E117.03836
G1 X27.918 Y203.985 E117.1116
G1 X27.264 Y203.568 E117.1849
G1 X26.656 Y203.086 E117.25822
G1 X26.307 Y202.759 E117.30342
G1 X26.204 Y202.656 E117.31718
G1 X25.685 Y202.08 E117.39045
G1 X25.227 Y201.454 E117.46375
G1 X24.837 Y200.783 E117.53709
G1 X24.517 Y200.077 E117.61034
G1 X24.272 Y199.341 E117.68365
G1 X24.104 Y198.583 E117.75702
G1 X24.015 Y197.813 E117.83027
G1 X24 Y197.335 E117.87546
G1 X24 Y135.091 E123.75752
G1 X24.04 Y134.316 E123.83085
G1 X24.159 Y133.55 E123.90411
G1 X24.357 Y132.8 E123.97741
G1 X24.631 Y132.074 E124.05074
G1 X24.978 Y131.381 E124.12398
G1 X25.395 Y130.727 E124.19728
G1 X25.877 Y130.119 E124.2706
G1 X26.027 Y129.959 E124.29132
G1 X25.685 Y129.58 E124.33957
G1 X25.227 Y128.954 E124.41287
G1 X24.837 Y128.283 E124.48621
G1 X24.517 Y127.577 E124.55946
G1 X24.272 Y126.841 E124.63276
G1 X24.104 Y126.083 E124.70613
G1 X24.015 Y125.313 E124.77938
G1 X24 Y124.835 E124.82457
G1 X24 Y25.665 E134.19614
G1 X24.04 Y24.89 E134.26947
G1 X24.159 Y24.124 E134.34273
G1 X24.357 Y23.374 E134.41603
G1 X24.631 Y22.648 E134.48936
G1 X24.978 Y21.955 E134.5626
G1 X25.395 Y21.301 E134.6359
G1 X25.877 Y20.693 E134.70922
G0 F4500 X25.743 Y21.417
G1 F1800 X26.452 Y20.592 E134.81202
G1 X26.555 Y20.489 E134.82578
G1 X27.118 Y19.982 E134.89738
G1 X27.731 Y19.538 E134.96891
G1 X28.388 Y19.16 E135.04054
G1 X29.08 Y18.854 E135.11204
G1 X29.802 Y18.623 E135.18367
G1 X30.543 Y18.469 E135.2552
G1 X31.628 Y18.387 E135.35802
G1 X191.372 Y18.387 E150.45383
G1 X192.128 Y18.427 E150.52537
G1 X192.876 Y18.546 E150.59695
G1 X193.607 Y18.744 E150.66851
G1 X194.314 Y19.018 E150.74017
G1 X194.987 Y19.364 E150.81168
G1 X195.62 Y19.78 E150.88326
G1 X196.445 Y20.489 E150.98606
G1 X196.548 Y20.592 E150.99982
G1 X197.055 Y21.155 E151.07142
G1 X197.499 Y21.768 E151.14295
G1 X197.877 Y22.425 E151.21457
G1 X198.183 Y23.117 E151.28608
G1 X198.414 Y23.839 E151.35771
G1 X198.568 Y24.58 E151.42923
G1 X198.65 Y25.665 E151.53206
G1 X198.65 Y197.335 E167.75487
G1 X198.61 Y198.091 E167.82642
G1 X198.491 Y198.839 E167.89799
G1 X198.293 Y199.57 E167.96956
G1 X198.019 Y200.277 E168.04121
G1 X197.673 Y200.95 E168.11272
G1 X197.257 Y201.583 E168.1843
G1 X196.548 Y202.408 E168.2871
G1 X196.445 Y202.511 E168.30087
G1 X195.882 Y203.018 E168.37246
G1 X195.269 Y203.462 E168.44399
G1 X194.612 Y203.84 E168.51562
G1 X193.92 Y204.146 E168.58712
G1 X193.198 Y204.377 E168.65876
G1 X192.457 Y204.531 E168.73028
G1 X191.372 Y204.613 E168.8331
G1 X31.628 Y204.613 E183.92891
G1 X30.872 Y204.573 E184.00045
G1 X30.124 Y204.454 E184.07203
G1 X29.393 Y204.256 E184.1436
G1 X28.686 Y203.982 E184.21525
G1 X28.013 Y203.636 E184.28676
G1 X27.38 Y203.22 E184.35834
G1 X26.555 Y202.511 E184.46114
G1 X26.452 Y202.408 E184.4749
G1 X25.945 Y201.845 E184.5465
G1 X25.501 Y201.232 E184.61803
G1 X25.123 Y200.575 E184.68966
G1 X24.817 Y199.883 E184.76116
G1 X24.586 Y199.161 E184.8328
G1 X24.432 Y198.42 E184.90432
G1 X24.35 Y197.335 E185.00714
G1 X24.35 Y135.091 E190.8892
G1 X24.39 Y134.335 E190.96074
G1 X24.509 Y133.587 E191.03232
G1 X24.707 Y132.856 E191.10388
G1 X24.981 Y132.149 E191.17554
G1 X25.327 Y131.476 E191.24705
G1 X25.743 Y130.843 E191.31863
G1 X26.452 Y130.018 E191.42143
G1 X26.507 Y129.963 E191.42878
G1 X26.452 Y129.908 E191.43613
G1 X25.945 Y129.345 E191.50772
G1 X25.501 Y128.732 E191.57925
G1 X25.123 Y128.075 E191.65088
G1 X24.817 Y127.383 E191.72238
G1 X24.586 Y126.661 E191.79402
G1 X24.432 Y125.92 E191.86554
G1 X24.35 Y124.835 E191.96836
G1 X24.35 Y25.665 E201.33993
G1 X24.39 Y24.909 E201.41147
G1 X24.509 Y24.161 E201.48305
G1 X24.707 Y23.43 E201.55462
G1 X24.981 Y22.723 E201.62627
G1 X25.327 Y22.05 E201.69778
G1 X25.743 Y21.417 E201.76936
G0 F4500 X26.09 Y21.536
G1 F1800 X26.699 Y20.839 E201.85683
G1 X26.802 Y20.736 E201.87059
G1 X27.352 Y20.243 E201.94039
G1 X27.952 Y19.812 E202.0102
G1 X28.595 Y19.448 E202.08003
G1 X29.273 Y19.156 E202.14979
G1 X29.979 Y18.939 E202.21959
G1 X30.705 Y18.8 E202.28944
G1 X31.628 Y18.737 E202.37687
G1 X191.372 Y18.737 E217.47267
G1 X192.11 Y18.777 E217.54252
G1 X192.838 Y18.896 E217.61223
G1 X193.55 Y19.094 E217.68206
G1 X194.236 Y19.367 E217.75183
G1 X194.889 Y19.713 E217.82167
G1 X195.501 Y20.127 E217.89149
G1 X196.198 Y20.736 E217.97896
G1 X196.301 Y20.839 E217.99273
G1 X196.794 Y21.389 E218.06253
G1 X197.225 Y21.989 E218.13234
G1 X197.589 Y22.632 E218.20216
G1 X197.881 Y23.31 E218.27192
G1 X198.098 Y24.016 E218.34172
G1 X198.237 Y24.742 E218.41157
G1 X198.3 Y25.665 E218.499
G1 X198.3 Y197.335 E234.72181
G1 X198.26 Y198.073 E234.79166
G1 X198.141 Y198.801 E234.86137
G1 X197.943 Y199.513 E234.9312
G1 X197.67 Y200.199 E235.00098
G1 X197.324 Y200.852 E235.07081
G1 X196.91 Y201.464 E235.14064
G1 X196.301 Y202.161 E235.2281
G1 X196.198 Y202.264 E235.24187
G1 X195.648 Y202.757 E235.31167
G1 X195.048 Y203.188 E235.38148
G1 X194.405 Y203.552 E235.4513
G1 X193.727 Y203.844 E235.52106
G1 X193.021 Y204.061 E235.59086
G1 X192.295 Y204.2 E235.66071
G1 X191.372 Y204.263 E235.74814
G1 X31.628 Y204.263 E250.84395
G1 X30.89 Y204.223 E250.91379
G1 X30.162 Y204.104 E250.9835
G1 X29.45 Y203.906 E251.05334
G1 X28.764 Y203.633 E251.12311
G1 X28.111 Y203.287 E251.19295
G1 X27.499 Y202.873 E251.26277
G1 X26.802 Y202.264 E251.35024
G1 X26.699 Y202.161 E251.364
G1 X26.206 Y201.611 E251.4338
G1 X25.775 Y201.011 E251.50361
G1 X25.411 Y200.368 E251.57344
G1 X25.119 Y199.69 E251.6432
G1 X24.902 Y198.984 E251.713
G1 X24.763 Y198.258 E251.78285
G1 X24.7 Y197.335 E251.87027
G1 X24.7 Y135.091 E257.75233
G1 X24.74 Y134.353 E257.82218
G1 X24.859 Y133.625 E257.89189
G1 X25.057 Y132.913 E257.96172
G1 X25.33 Y132.227 E258.03149
G1 X25.676 Y131.574 E258.10133
G1 X26.09 Y130.962 E258.17115
G1 X26.699 Y130.265 E258.25862
G1 X26.802 Y130.162 E258.27239
G1 X27.027 Y129.96 E258.30096
G1 X26.802 Y129.764 E258.32916
G1 X26.699 Y129.661 E258.34292
G1 X26.206 Y129.111 E258.41272
G1 X25.775 Y128.511 E258.48254
G1 X25.411 Y127.868 E258.55236
G1 X25.119 Y127.19 E258.62212
G1 X24.902 Y126.484 E258.69192
G1 X24.763 Y125.758 E258.76177
G1 X24.7 Y124.835 E258.8492
G1 X24.7 Y25.665 E268.22076
G1 X24.74 Y24.927 E268.29061
G1 X24.859 Y24.199 E268.36031
G1 X25.057 Y23.487 E268.43015
G1 X25.33 Y22.801 E268.49992
G1 X25.676 Y22.148 E268.56976
G1 X26.09 Y21.536 E268.63958
G0 F4500 X26.438 Y21.659
G1 F1800 X26.946 Y21.086 E268.71195
G1 X27.049 Y20.983 E268.72571
G1 X27.586 Y20.504 E268.79371
G1 X28.172 Y20.087 E268.86168
G1 X28.801 Y19.737 E268.9297
G1 X29.464 Y19.459 E268.99764
G1 X30.155 Y19.257 E269.06568
G1 X30.863 Y19.132 E269.13362
G1 X31.628 Y19.087 E269.20603
G1 X191.372 Y19.087 E284.30184
G1 X192.09 Y19.127 E284.3698
G1 X192.8 Y19.246 E284.43783
G1 X193.492 Y19.444 E284.50585
G1 X194.157 Y19.717 E284.57378
G1 X194.789 Y20.062 E284.64182
G1 X195.378 Y20.475 E284.7098
G1 X195.951 Y20.983 E284.78217
G1 X196.054 Y21.086 E284.79593
G1 X196.533 Y21.623 E284.86393
G1 X196.95 Y22.209 E284.9319
G1 X197.3 Y22.838 E284.99992
G1 X197.578 Y23.501 E285.06786
G1 X197.78 Y24.192 E285.13589
G1 X197.905 Y24.9 E285.20383
G1 X197.95 Y25.665 E285.27625
G1 X197.95 Y197.335 E301.49907
G1 X197.91 Y198.053 E301.56702
G1 X197.791 Y198.763 E301.63505
G1 X197.593 Y199.455 E301.70307
G1 X197.32 Y200.12 E301.771
G1 X196.975 Y200.752 E301.83905
G1 X196.562 Y201.341 E301.90703
G1 X196.054 Y201.914 E301.97939
G1 X195.951 Y202.017 E301.99316
G1 X195.414 Y202.496 E302.06116
G1 X194.828 Y202.913 E302.12913
G1 X194.199 Y203.263 E302.19715
G1 X193.536 Y203.541 E302.26509
G1 X192.845 Y203.743 E302.33312
G1 X192.137 Y203.868 E302.40106
G1 X191.372 Y203.913 E302.47348
G1 X31.628 Y203.913 E317.56929
G1 X30.91 Y203.873 E317.63724
G1 X30.2 Y203.754 E317.70527
G1 X29.508 Y203.556 E317.77329
G1 X28.843 Y203.283 E317.84122
G1 X28.211 Y202.938 E317.90927
G1 X27.622 Y202.525 E317.97725
G1 X27.049 Y202.017 E318.04961
G1 X26.946 Y201.914 E318.06338
G1 X26.467 Y201.377 E318.13138
G1 X26.05 Y200.791 E318.19934
G1 X25.7 Y200.162 E318.26737
G1 X25.422 Y199.499 E318.33531
G1 X25.22 Y198.808 E318.40334
G1 X25.095 Y198.1 E318.47128
G1 X25.05 Y197.335 E318.5437
G1 X25.05 Y135.091 E324.42575
G1 X25.09 Y134.373 E324.49371
G1 X25.209 Y133.663 E324.56174
G1 X25.407 Y132.971 E324.62976
G1 X25.68 Y132.306 E324.69769
G1 X26.025 Y131.674 E324.76573
G1 X26.438 Y131.085 E324.83372
G1 X26.946 Y130.512 E324.90608
G1 X27.049 Y130.409 E324.91984
G1 X27.551 Y129.962 E324.98337
G1 X27.049 Y129.517 E325.04676
G1 X26.946 Y129.414 E325.06052
G1 X26.467 Y128.877 E325.12853
G1 X26.05 Y128.291 E325.19649
G1 X25.7 Y127.662 E325.26452
G1 X25.422 Y126.999 E325.33245
G1 X25.22 Y126.308 E325.40049
G1 X25.095 Y125.6 E325.46843
G1 X25.05 Y124.835 E325.54084
G1 X25.05 Y25.665 E334.91241
G1 X25.09 Y24.947 E334.98037
G1 X25.209 Y24.237 E335.0484
G1 X25.407 Y23.545 E335.11642
G1 X25.68 Y22.88 E335.18435
G1 X26.025 Y22.248 E335.25239
G1 X26.438 Y21.659 E335.32037
G0 F4500 X26.785 Y21.786
G1 F1800 X27.194 Y21.334 E335.37798
G1 X27.297 Y21.231 E335.39174
G1 X27.819 Y20.765 E335.45787
G1 X28.391 Y20.362 E335.52399
G1 X29.005 Y20.027 E335.59009
G1 X29.654 Y19.764 E335.65626
G1 X30.328 Y19.577 E335.72236
G1 X31.019 Y19.467 E335.78848
G1 X31.628 Y19.437 E335.8461
G1 X191.372 Y19.437 E350.94191
G1 X192.071 Y19.477 E351.00807
G1 X192.76 Y19.596 E351.07415
G1 X193.431 Y19.794 E351.14026
G1 X194.076 Y20.066 E351.20641
G1 X194.685 Y20.41 E351.27251
G1 X195.251 Y20.822 E351.33867
G1 X195.703 Y21.231 E351.39627
G1 X195.806 Y21.334 E351.41004
G1 X196.272 Y21.856 E351.47616
G1 X196.675 Y22.428 E351.54228
G1 X197.01 Y23.042 E351.60838
G1 X197.273 Y23.691 E351.67456
G1 X197.46 Y24.365 E351.74066
G1 X197.57 Y25.056 E351.80678
G1 X197.6 Y25.665 E351.8644
G1 X197.6 Y197.335 E368.08721
G1 X197.56 Y198.034 E368.15338
G1 X197.441 Y198.723 E368.21945
G1 X197.243 Y199.394 E368.28556
G1 X196.971 Y200.039 E368.35171
G1 X196.627 Y200.648 E368.41781
G1 X196.215 Y201.214 E368.48397
G1 X195.806 Y201.666 E368.54157
G1 X195.703 Y201.769 E368.55534
G1 X195.181 Y202.235 E368.62146
G1 X194.609 Y202.638 E368.68759
G1 X193.995 Y202.973 E368.75368
G1 X193.346 Y203.236 E368.81986
G1 X192.672 Y203.423 E368.88596
G1 X191.981 Y203.533 E368.95208
G1 X191.372 Y203.563 E369.0097
G1 X31.628 Y203.563 E384.10551
G1 X30.929 Y203.523 E384.17167
G1 X30.24 Y203.404 E384.23775
G1 X29.569 Y203.206 E384.30386
G1 X28.924 Y202.934 E384.37001
G1 X28.315 Y202.59 E384.43611
G1 X27.749 Y202.178 E384.50226
G1 X27.297 Y201.769 E384.55987
G1 X27.194 Y201.666 E384.57363
G1 X26.728 Y201.144 E384.63976
G1 X26.325 Y200.572 E384.70588
G1 X25.99 Y199.958 E384.77198
G1 X25.727 Y199.309 E384.83815
G1 X25.54 Y198.635 E384.90425
G1 X25.43 Y197.944 E384.97037
G1 X25.4 Y197.335 E385.02799
G1 X25.4 Y135.091 E390.91005
G1 X25.44 Y134.392 E390.97622
G1 X25.559 Y133.703 E391.04229
G1 X25.757 Y133.032 E391.1084
G1 X26.029 Y132.387 E391.17455
G1 X26.373 Y131.778 E391.24065
G1 X26.785 Y131.212 E391.30681
G1 X27.194 Y130.76 E391.36441
G1 X27.297 Y130.657 E391.37818
G1 X27.819 Y130.191 E391.4443
G1 X28.142 Y129.964 E391.48161
G1 X27.749 Y129.678 E391.52754
G1 X27.297 Y129.269 E391.58515
G1 X27.194 Y129.166 E391.59891
G1 X26.728 Y128.644 E391.66504
G1 X26.325 Y128.072 E391.73116
G1 X25.99 Y127.458 E391.79726
G1 X25.727 Y126.809 E391.86343
G1 X25.54 Y126.135 E391.92953
G1 X25.43 Y125.444 E391.99565
G1 X25.4 Y124.835 E392.05327
G1 X25.4 Y25.665 E401.42484
G1 X25.44 Y24.966 E401.491
G1 X25.559 Y24.277 E401.55708
G1 X25.757 Y23.606 E401.62319
G1 X26.029 Y22.961 E401.68934
G1 X26.373 Y22.352 E401.75544
G1 X26.785 Y21.786 E401.8216
G0 F4500 X27.132 Y21.917
G1 F1800 X27.441 Y21.581 E401.86473
G1 X27.544 Y21.478 E401.8785
G1 X28.052 Y21.027 E401.94269
G1 X28.61 Y20.639 E402.00692
