;FLAVOR:UltiGCode
;TIME:938
;MATERIAL:1798
;MATERIAL2:0
;NOZZLE_DIAMETER:0.4
;Generated with Cura_SteamEngine 3.6.0
M82 ;absolute extrusion mode

G92 E0
G10
;LAYER_COUNT:100
;LAYER:0
M107
G0 F4500 X98.019 Y95.741 Z0.27
;TYPE:SKIRT
G11
G1 F1800 X98.122 Y95.638 E0.01377
G1 X98.71 Y95.105 E0.08876
G1 X99.349 Y94.635 E0.16372
G1 X100.033 Y94.232 E0.23875
G1 X100.753 Y93.899 E0.31371
G1 X101.503 Y93.641 E0.38866
G1 X102.276 Y93.459 E0.46371
G1 X103.062 Y93.356 E0.53862
G1 X103.69 Y93.331 E0.59801
G1 X119.31 Y93.331 E2.0741
G1 X120.102 Y93.371 E2.14904
G1 X120.887 Y93.49 E2.22407
G1 X121.655 Y93.688 E2.29902
G1 X122.4 Y93.963 E2.37407
G1 X123.113 Y94.31 E2.449
G1 X123.788 Y94.728 E2.52403
G1 X124.417 Y95.211 E2.59897
G1 X124.878 Y95.638 E2.65835
G1 X124.981 Y95.741 E2.67212
G1 X125.514 Y96.329 E2.74712
G1 X125.984 Y96.968 E2.82208
G1 X126.387 Y97.652 E2.8971
G1 X126.72 Y98.372 E2.97206
G1 X126.978 Y99.122 E3.04702
G1 X127.16 Y99.895 E3.12206
G1 X127.263 Y100.681 E3.19697
G1 X127.288 Y101.309 E3.25637
G1 X127.288 Y121.691 E5.18247
G1 X127.248 Y122.483 E5.2574
G1 X127.129 Y123.268 E5.33243
G1 X126.931 Y124.036 E5.40738
G1 X126.656 Y124.781 E5.48243
G1 X126.309 Y125.494 E5.55736
G1 X125.891 Y126.169 E5.63239
G1 X125.408 Y126.798 E5.70734
G1 X124.981 Y127.259 E5.76672
G1 X124.878 Y127.362 E5.78048
G1 X124.29 Y127.895 E5.85548
G1 X123.651 Y128.365 E5.93044
G1 X122.967 Y128.768 E6.00546
G1 X122.247 Y129.101 E6.08043
G1 X121.497 Y129.359 E6.15538
G1 X120.724 Y129.541 E6.23042
G1 X119.938 Y129.644 E6.30534
G1 X119.31 Y129.669 E6.36473
G1 X103.69 Y129.669 E7.84082
G1 X102.898 Y129.629 E7.91576
G1 X102.113 Y129.51 E7.99079
G1 X101.345 Y129.312 E8.06574
G1 X100.6 Y129.037 E8.14078
G1 X99.887 Y128.69 E8.21572
G1 X99.212 Y128.272 E8.29075
G1 X98.583 Y127.789 E8.36569
G1 X98.122 Y127.362 E8.42507
G1 X98.019 Y127.259 E8.43884
G1 X97.486 Y126.671 E8.51383
G1 X97.016 Y126.032 E8.58879
G1 X96.613 Y125.348 E8.66382
G1 X96.28 Y124.628 E8.73878
G1 X96.022 Y123.878 E8.81373
G1 X95.84 Y123.105 E8.88878
G1 X95.737 Y122.319 E8.96369
G1 X95.712 Y121.691 E9.02308
G1 X95.712 Y101.309 E10.94918
G1 X95.752 Y100.517 E11.02412
G1 X95.871 Y99.732 E11.09915
G1 X96.069 Y98.964 E11.1741
G1 X96.344 Y98.219 E11.24915
G1 X96.691 Y97.506 E11.32408
G1 X97.109 Y96.831 E11.39911
G1 X97.592 Y96.202 E11.47405
G1 X98.019 Y95.741 E11.53343
G0 F4500 X98.266 Y95.988
G1 F1800 X98.369 Y95.885 E11.5472
G1 X98.945 Y95.366 E11.62047
G1 X99.571 Y94.908 E11.69377
G1 X100.242 Y94.518 E11.76711
G1 X100.948 Y94.198 E11.84036
G1 X101.684 Y93.953 E11.91366
G1 X102.442 Y93.785 E11.98703
G1 X103.212 Y93.696 E12.06028
G1 X103.69 Y93.681 E12.10547
G1 X119.31 Y93.681 E13.58156
G1 X120.085 Y93.721 E13.6549
G1 X120.851 Y93.84 E13.72815
G1 X121.601 Y94.038 E13.80146
G1 X122.327 Y94.312 E13.87479
G1 X123.02 Y94.659 E13.94803
G1 X123.674 Y95.076 E14.02133
G1 X124.282 Y95.558 E14.09465
G1 X124.631 Y95.885 E14.13984
G1 X124.734 Y95.988 E14.15361
G1 X125.253 Y96.564 E14.22688
G1 X125.711 Y97.19 E14.30017
G1 X126.101 Y97.861 E14.37352
G1 X126.421 Y98.567 E14.44677
G1 X126.666 Y99.303 E14.52007
G1 X126.834 Y100.061 E14.59344
G1 X126.923 Y100.831 E14.66669
G1 X126.938 Y101.309 E14.71188
G1 X126.938 Y121.691 E16.63798
G1 X126.898 Y122.466 E16.71132
G1 X126.779 Y123.232 E16.78457
G1 X126.581 Y123.982 E16.85788
G1 X126.307 Y124.708 E16.93121
G1 X125.96 Y125.401 E17.00445
G1 X125.543 Y126.055 E17.07774
G1 X125.061 Y126.663 E17.15106
G1 X124.734 Y127.012 E17.19626
G1 X124.631 Y127.115 E17.21002
G1 X124.055 Y127.634 E17.28329
G1 X123.429 Y128.092 E17.35659
G1 X122.758 Y128.482 E17.42993
G1 X122.052 Y128.802 E17.50318
G1 X121.316 Y129.047 E17.57649
G1 X120.558 Y129.215 E17.64986
G1 X119.788 Y129.304 E17.72311
G1 X119.31 Y129.319 E17.7683
G1 X103.69 Y129.319 E19.24439
G1 X102.915 Y129.279 E19.31773
G1 X102.149 Y129.16 E19.39098
G1 X101.399 Y128.962 E19.46428
G1 X100.673 Y128.688 E19.53761
G1 X99.98 Y128.341 E19.61085
G1 X99.326 Y127.924 E19.68415
G1 X98.718 Y127.442 E19.75747
G1 X98.369 Y127.115 E19.80267
G1 X98.266 Y127.012 E19.81643
G1 X97.747 Y126.436 E19.8897
G1 X97.289 Y125.81 E19.963
G1 X96.899 Y125.139 E20.03634
G1 X96.579 Y124.433 E20.10959
G1 X96.334 Y123.697 E20.1829
G1 X96.166 Y122.939 E20.25627
G1 X96.077 Y122.169 E20.32952
G1 X96.062 Y121.691 E20.37471
G1 X96.062 Y101.309 E22.30081
G1 X96.102 Y100.534 E22.37414
G1 X96.221 Y99.768 E22.4474
G1 X96.419 Y99.018 E22.5207
G1 X96.693 Y98.292 E22.59403
G1 X97.04 Y97.599 E22.66727
G1 X97.457 Y96.945 E22.74057
G1 X97.939 Y96.337 E22.81389
G1 X98.266 Y95.988 E22.85908
G0 F4500 X98.514 Y96.236
G1 F1800 X98.617 Y96.133 E22.87285
G1 X99.18 Y95.626 E22.94445
G1 X99.793 Y95.182 E23.01597
G1 X100.45 Y94.804 E23.0876
G1 X101.142 Y94.498 E23.15911
G1 X101.864 Y94.267 E23.23074
G1 X102.605 Y94.113 E23.30226
G1 X103.69 Y94.031 E23.40509
G1 X119.31 Y94.031 E24.88118
G1 X120.066 Y94.071 E24.95272
G1 X120.814 Y94.19 E25.02429
G1 X121.545 Y94.388 E25.09586
G1 X122.252 Y94.662 E25.16752
G1 X122.925 Y95.008 E25.23903
G1 X123.558 Y95.424 E25.31061
G1 X124.383 Y96.133 E25.4134
G1 X124.486 Y96.236 E25.42717
G1 X124.993 Y96.799 E25.49877
G1 X125.437 Y97.412 E25.57029
G1 X125.815 Y98.069 E25.64192
G1 X126.121 Y98.761 E25.71343
G1 X126.352 Y99.483 E25.78506
G1 X126.506 Y100.224 E25.85658
G1 X126.588 Y101.309 E25.95941
G1 X126.588 Y121.691 E27.88551
G1 X126.548 Y122.447 E27.95705
G1 X126.429 Y123.195 E28.02862
G1 X126.231 Y123.926 E28.10019
G1 X125.957 Y124.633 E28.17185
G1 X125.611 Y125.306 E28.24336
G1 X125.195 Y125.939 E28.31494
G1 X124.486 Y126.764 E28.41773
G1 X124.383 Y126.867 E28.4315
G1 X123.82 Y127.374 E28.5031
G1 X123.207 Y127.818 E28.57462
G1 X122.55 Y128.196 E28.64625
G1 X121.858 Y128.502 E28.71775
G1 X121.136 Y128.733 E28.78939
G1 X120.395 Y128.887 E28.86091
G1 X119.31 Y128.969 E28.96374
G1 X103.69 Y128.969 E30.43983
G1 X102.934 Y128.929 E30.51137
G1 X102.186 Y128.81 E30.58294
G1 X101.455 Y128.612 E30.65451
G1 X100.748 Y128.338 E30.72617
G1 X100.075 Y127.992 E30.79768
G1 X99.442 Y127.576 E30.86926
G1 X98.617 Y126.867 E30.97205
G1 X98.514 Y126.764 E30.98582
G1 X98.007 Y126.201 E31.05742
G1 X97.563 Y125.588 E31.12894
G1 X97.185 Y124.931 E31.20057
G1 X96.879 Y124.239 E31.27207
G1 X96.648 Y123.517 E31.34371
G1 X96.494 Y122.776 E31.41523
G1 X96.412 Y121.691 E31.51806
G1 X96.412 Y101.309 E33.44416
G1 X96.452 Y100.553 E33.5157
G1 X96.571 Y99.805 E33.58727
G1 X96.769 Y99.074 E33.65884
G1 X97.043 Y98.367 E33.73049
G1 X97.389 Y97.694 E33.80201
G1 X97.805 Y97.061 E33.87359
G1 X98.514 Y96.236 E33.97638
G0 F4500 X98.761 Y96.483
G1 F1800 X98.864 Y96.38 E33.99015
G1 X99.414 Y95.887 E34.05995
G1 X100.014 Y95.456 E34.12976
G1 X100.657 Y95.092 E34.19958
G1 X101.335 Y94.8 E34.26934
G1 X102.041 Y94.583 E34.33914
G1 X102.767 Y94.444 E34.40899
G1 X103.69 Y94.381 E34.49642
G1 X119.31 Y94.381 E35.97251
G1 X120.048 Y94.421 E36.04235
G1 X120.776 Y94.54 E36.11206
G1 X121.488 Y94.738 E36.1819
G1 X122.174 Y95.011 E36.25167
G1 X122.827 Y95.357 E36.32151
G1 X123.439 Y95.771 E36.39133
G1 X124.136 Y96.38 E36.4788
G1 X124.239 Y96.483 E36.49256
G1 X124.732 Y97.033 E36.56236
G1 X125.163 Y97.633 E36.63218
G1 X125.527 Y98.276 E36.702
G1 X125.819 Y98.954 E36.77176
G1 X126.036 Y99.66 E36.84156
G1 X126.175 Y100.386 E36.91141
G1 X126.238 Y101.309 E36.99884
G1 X126.238 Y121.691 E38.92494
G1 X126.198 Y122.429 E38.99478
G1 X126.079 Y123.157 E39.06449
G1 X125.881 Y123.869 E39.13433
G1 X125.608 Y124.555 E39.2041
G1 X125.262 Y125.208 E39.27393
G1 X124.848 Y125.82 E39.34376
G1 X124.239 Y126.517 E39.43122
G1 X124.136 Y126.62 E39.44499
G1 X123.586 Y127.113 E39.51479
G1 X122.986 Y127.544 E39.5846
G1 X122.343 Y127.908 E39.65443
G1 X121.665 Y128.2 E39.72419
G1 X120.959 Y128.417 E39.79398
G1 X120.233 Y128.556 E39.86384
G1 X119.31 Y128.619 E39.95126
G1 X103.69 Y128.619 E41.42735
G1 X102.952 Y128.579 E41.4972
G1 X102.224 Y128.46 E41.56691
G1 X101.512 Y128.262 E41.63674
G1 X100.826 Y127.989 E41.70651
G1 X100.173 Y127.643 E41.77635
G1 X99.561 Y127.229 E41.84617
G1 X98.864 Y126.62 E41.93364
G1 X98.761 Y126.517 E41.94741
G1 X98.268 Y125.967 E42.0172
G1 X97.837 Y125.367 E42.08702
G1 X97.473 Y124.724 E42.15684
G1 X97.181 Y124.046 E42.2266
G1 X96.964 Y123.34 E42.2964
G1 X96.825 Y122.614 E42.36625
G1 X96.762 Y121.691 E42.45368
G1 X96.762 Y101.309 E44.37978
G1 X96.802 Y100.571 E44.44962
G1 X96.921 Y99.843 E44.51933
G1 X97.119 Y99.131 E44.58917
G1 X97.392 Y98.445 E44.65894
G1 X97.738 Y97.792 E44.72878
G1 X98.152 Y97.18 E44.7986
G1 X98.761 Y96.483 E44.88607
G0 F4500 X99.008 Y96.73
G1 F1800 X99.111 Y96.627 E44.89983
G1 X99.648 Y96.148 E44.96783
G1 X100.234 Y95.731 E45.0358
G1 X100.863 Y95.381 E45.10382
G1 X101.526 Y95.103 E45.17176
G1 X102.217 Y94.901 E45.23979
G1 X102.925 Y94.776 E45.30773
G1 X103.69 Y94.731 E45.38015
G1 X119.31 Y94.731 E46.85624
G1 X120.028 Y94.771 E46.9242
G1 X120.738 Y94.89 E46.99223
G1 X121.43 Y95.088 E47.06025
G1 X122.095 Y95.361 E47.12818
G1 X122.727 Y95.706 E47.19622
G1 X123.316 Y96.119 E47.2642
G1 X123.889 Y96.627 E47.33657
G1 X123.992 Y96.73 E47.35033
G1 X124.471 Y97.267 E47.41833
G1 X124.888 Y97.853 E47.4863
G1 X125.238 Y98.482 E47.55432
G1 X125.516 Y99.145 E47.62226
G1 X125.718 Y99.836 E47.69029
G1 X125.843 Y100.544 E47.75823
G1 X125.888 Y101.309 E47.83065
G1 X125.888 Y121.691 E49.75675
G1 X125.848 Y122.409 E49.82471
G1 X125.729 Y123.119 E49.89274
G1 X125.531 Y123.811 E49.96076
G1 X125.258 Y124.476 E50.02869
G1 X124.913 Y125.108 E50.09673
G1 X124.5 Y125.697 E50.16471
G1 X123.992 Y126.27 E50.23708
G1 X123.889 Y126.373 E50.25084
G1 X123.352 Y126.852 E50.31884
G1 X122.766 Y127.269 E50.38681
G1 X122.137 Y127.619 E50.45483
G1 X121.474 Y127.897 E50.52277
G1 X120.783 Y128.099 E50.5908
G1 X120.075 Y128.224 E50.65874
G1 X119.31 Y128.269 E50.73116
G1 X103.69 Y128.269 E52.20725
G1 X102.972 Y128.229 E52.27521
G1 X102.262 Y128.11 E52.34324
G1 X101.57 Y127.912 E52.41126
G1 X100.905 Y127.639 E52.47919
G1 X100.273 Y127.294 E52.54723
G1 X99.684 Y126.881 E52.61521
G1 X99.111 Y126.373 E52.68758
G1 X99.008 Y126.27 E52.70134
G1 X98.529 Y125.733 E52.76934
G1 X98.112 Y125.147 E52.83731
G1 X97.762 Y124.518 E52.90533
G1 X97.484 Y123.855 E52.97327
G1 X97.282 Y123.164 E53.0413
G1 X97.157 Y122.456 E53.10925
G1 X97.112 Y121.691 E53.18166
G1 X97.112 Y101.309 E55.10776
G1 X97.152 Y100.591 E55.17572
G1 X97.271 Y99.881 E55.24375
G1 X97.469 Y99.189 E55.31177
G1 X97.742 Y98.524 E55.3797
G1 X98.087 Y97.892 E55.44774
G1 X98.5 Y97.303 E55.51572
G1 X99.008 Y96.73 E55.58809
G0 F4500 X99.256 Y96.978
G1 F1800 X99.359 Y96.875 E55.60185
G1 X99.881 Y96.409 E55.66798
G1 X100.453 Y96.006 E55.7341
G1 X101.067 Y95.671 E55.8002
G1 X101.716 Y95.408 E55.86637
G1 X102.39 Y95.221 E55.93247
G1 X103.081 Y95.111 E55.99859
G1 X103.69 Y95.081 E56.05621
G1 X119.31 Y95.081 E57.5323
G1 X120.009 Y95.121 E57.59847
G1 X120.698 Y95.24 E57.66454
G1 X121.369 Y95.438 E57.73065
G1 X122.014 Y95.71 E57.7968
G1 X122.623 Y96.054 E57.8629
G1 X123.189 Y96.466 E57.92906
G1 X123.641 Y96.875 E57.98666
G1 X123.744 Y96.978 E58.00043
G1 X124.21 Y97.5 E58.06655
G1 X124.613 Y98.072 E58.13268
G1 X124.948 Y98.686 E58.19877
G1 X125.211 Y99.335 E58.26495
G1 X125.398 Y100.009 E58.33105
G1 X125.508 Y100.7 E58.39717
G1 X125.538 Y101.309 E58.45479
G1 X125.538 Y121.691 E60.38089
G1 X125.498 Y122.39 E60.44705
G1 X125.379 Y123.079 E60.51313
G1 X125.181 Y123.75 E60.57924
G1 X124.909 Y124.395 E60.64539
G1 X124.565 Y125.004 E60.71149
G1 X124.153 Y125.57 E60.77764
G1 X123.744 Y126.022 E60.83525
G1 X123.641 Y126.125 E60.84902
G1 X123.119 Y126.591 E60.91514
G1 X122.547 Y126.994 E60.98126
G1 X121.933 Y127.329 E61.04736
G1 X121.284 Y127.592 E61.11354
G1 X120.61 Y127.779 E61.17963
G1 X119.919 Y127.889 E61.24576
G1 X119.31 Y127.919 E61.30338
G1 X103.69 Y127.919 E62.77947
G1 X102.991 Y127.879 E62.84563
G1 X102.302 Y127.76 E62.9117
G1 X101.631 Y127.562 E62.97782
G1 X100.986 Y127.29 E63.04397
G1 X100.377 Y126.946 E63.11006
G1 X99.811 Y126.534 E63.17622
G1 X99.359 Y126.125 E63.23383
G1 X99.256 Y126.022 E63.24759
G1 X98.79 Y125.5 E63.31372
G1 X98.387 Y124.928 E63.37984
G1 X98.052 Y124.314 E63.44594
G1 X97.789 Y123.665 E63.51211
G1 X97.602 Y122.991 E63.57821
G1 X97.492 Y122.3 E63.64433
G1 X97.462 Y121.691 E63.70195
G1 X97.462 Y101.309 E65.62805
G1 X97.502 Y100.61 E65.69422
G1 X97.621 Y99.921 E65.76029
G1 X97.819 Y99.25 E65.8264
G1 X98.091 Y98.605 E65.89255
G1 X98.435 Y97.996 E65.95865
G1 X98.847 Y97.43 E66.02481
G1 X99.256 Y96.978 E66.08241
G0 F4500 X99.503 Y97.225
G1 F1800 X99.606 Y97.122 E66.09618
G1 X100.114 Y96.671 E66.16037
G1 X100.672 Y96.283 E66.2246
G1 X101.271 Y95.962 E66.28882
G1 X101.903 Y95.714 E66.35298
G1 X102.561 Y95.542 E66.41725
G1 X103.234 Y95.449 E66.48145
G1 X103.69 Y95.431 E66.52458
G1 X119.31 Y95.431 E68.00067
G1 X119.988 Y95.471 E68.06485
G1 X120.657 Y95.59 E68.12906
G1 X121.307 Y95.787 E68.19325
G1 X121.93 Y96.059 E68.25749
G1 X122.516 Y96.403 E68.3217
G1 X123.058 Y96.813 E68.38592
G1 X123.394 Y97.122 E68.42906
G1 X123.497 Y97.225 E68.44283
G1 X123.948 Y97.733 E68.50702
G1 X124.336 Y98.291 E68.57125
G1 X124.657 Y98.89 E68.63547
G1 X124.905 Y99.522 E68.69962
G1 X125.077 Y100.18 E68.7639
G1 X125.17 Y100.853 E68.8281
G1 X125.188 Y101.309 E68.87122
G1 X125.188 Y121.691 E70.79732
G1 X125.148 Y122.369 E70.8615
G1 X125.029 Y123.038 E70.92572
G1 X124.832 Y123.688 E70.9899
G1 X124.56 Y124.311 E71.05414
G1 X124.216 Y124.897 E71.11836
G1 X123.806 Y125.439 E71.18258
G1 X123.497 Y125.775 E71.22572
G1 X123.394 Y125.878 E71.23948
G1 X122.886 Y126.329 E71.30368
G1 X122.328 Y126.717 E71.3679
G1 X121.729 Y127.038 E71.43212
G1 X121.097 Y127.286 E71.49628
G1 X120.439 Y127.458 E71.56055
G1 X119.766 Y127.551 E71.62475
G1 X119.31 Y127.569 E71.66788
G1 X103.69 Y127.569 E73.14397
G1 X103.012 Y127.529 E73.20815
G1 X102.343 Y127.41 E73.27236
G1 X101.693 Y127.213 E73.33655
G1 X101.07 Y126.941 E73.40079
G1 X100.484 Y126.597 E73.465
G1 X99.942 Y126.187 E73.52923
G1 X99.606 Y125.878 E73.57236
G1 X99.503 Y125.775 E73.58613
G1 X99.052 Y125.267 E73.65032
G1 X98.664 Y124.709 E73.71455
G1 X98.343 Y124.11 E73.77877
G1 X98.095 Y123.478 E73.84293
G1 X97.923 Y122.82 E73.9072
G1 X97.83 Y122.147 E73.9714
G1 X97.812 Y121.691 E74.01453
G1 X97.812 Y101.309 E75.94063
G1 X97.852 Y100.631 E76.00481
G1 X97.971 Y99.962 E76.06902
G1 X98.168 Y99.312 E76.13321
G1 X98.44 Y98.689 E76.19745
G1 X98.784 Y98.103 E76.26166
G1 X99.194 Y97.561 E76.32588
G1 X99.503 Y97.225 E76.36902
G0 F4500 X99.751 Y97.473
G1 F1800 X99.854 Y97.37 E76.38278
G1 X100.347 Y96.933 E76.44504
G1 X100.889 Y96.56 E76.50722
G1 X101.473 Y96.255 E76.56948
G1 X102.089 Y96.023 E76.63168
G1 X102.729 Y95.867 E76.69393
G1 X103.69 Y95.781 E76.78511
G1 X119.31 Y95.781 E78.2612
G1 X119.967 Y95.821 E78.3234
G1 X120.615 Y95.94 E78.38566
G1 X121.243 Y96.137 E78.44786
G1 X121.843 Y96.409 E78.51011
G1 X122.406 Y96.751 E78.57236
G1 X123.146 Y97.37 E78.66353
G1 X123.249 Y97.473 E78.6773
G1 X123.686 Y97.966 E78.73956
G1 X124.059 Y98.508 E78.80173
G1 X124.364 Y99.092 E78.86399
G1 X124.596 Y99.708 E78.9262
G1 X124.752 Y100.348 E78.98845
G1 X124.838 Y101.309 E79.07962
G1 X124.838 Y121.691 E81.00572
G1 X124.798 Y122.348 E81.06792
G1 X124.679 Y122.996 E81.13018
G1 X124.482 Y123.624 E81.19238
G1 X124.21 Y124.224 E81.25464
G1 X123.868 Y124.787 E81.31689
G1 X123.249 Y125.527 E81.40806
G1 X123.146 Y125.63 E81.42182
G1 X122.653 Y126.067 E81.48408
G1 X122.111 Y126.44 E81.54625
G1 X121.527 Y126.745 E81.60852
G1 X120.911 Y126.977 E81.67072
G1 X120.271 Y127.133 E81.73297
G1 X119.31 Y127.219 E81.82415
G1 X103.69 Y127.219 E83.30024
G1 X103.033 Y127.179 E83.36244
G1 X102.385 Y127.06 E83.4247
G1 X101.757 Y126.863 E83.4869
G1 X101.157 Y126.591 E83.54915
G1 X100.594 Y126.249 E83.6114
G1 X99.854 Y125.63 E83.70257
G1 X99.751 Y125.527 E83.71634
G1 X99.314 Y125.034 E83.77859
G1 X98.941 Y124.492 E83.84077
G1 X98.636 Y123.908 E83.90303
G1 X98.404 Y123.292 E83.96523
G1 X98.248 Y122.652 E84.02748
G1 X98.162 Y121.691 E84.11866
G1 X98.162 Y101.309 E86.04476
G1 X98.202 Y100.652 E86.10696
G1 X98.321 Y100.004 E86.16922
G1 X98.518 Y99.376 E86.23142
G1 X98.79 Y98.776 E86.29367
G1 X99.132 Y98.213 E86.35592
G1 X99.751 Y97.473 E86.44709
G0 F4500 X99.998 Y97.72
G1 F1800 X100.101 Y97.617 E86.46086
