;FLAVOR:UltiGCode
;TIME:2662
;MATERIAL:5322
;MATERIAL2:0
;NOZZLE_DIAMETER:0.4
;Generated with Cura_SteamEngine 3.6.0
M82 ;absolute extrusion mode

G92 E0
G10
;LAYER_COUNT:224
;LAYER:0
M107
G0 F4500 X96.432 Y90.979 Z0.27
;TYPE:SKIRT
G11
G1 F1800 X96.535 Y90.876 E0.01377
G1 X97.123 Y90.343 E0.08876
G1 X97.762 Y89.873 E0.16372
G1 X98.446 Y89.47 E0.23875
G1 X99.166 Y89.137 E0.31371
G1 X99.916 Y88.879 E0.38866
G1 X100.689 Y88.697 E0.46371
G1 X101.475 Y88.594 E0.53862
G1 X102.103 Y88.569 E0.59801
G1 X120.897 Y88.569 E2.37405
G1 X121.689 Y88.609 E2.44899
G1 X122.474 Y88.728 E2.52402
G1 X123.242 Y88.926 E2.59896
G1 X123.987 Y89.201 E2.67401
G1 X124.7 Y89.548 E2.74894
G1 X125.375 Y89.966 E2.82397
G1 X126.004 Y90.449 E2.89892
G1 X126.465 Y90.876 E2.9583
G1 X126.568 Y90.979 E2.97206
G1 X127.101 Y91.567 E3.04706
G1 X127.571 Y92.206 E3.12202
G1 X127.974 Y92.89 E3.19704
G1 X128.307 Y93.61 E3.27201
G1 X128.565 Y94.36 E3.34696
G1 X128.747 Y95.133 E3.422
G1 X128.85 Y95.919 E3.49692
G1 X128.875 Y96.547 E3.55631
G1 X128.875 Y122.785 E6.0358
G1 X128.835 Y123.577 E6.11074
G1 X128.716 Y124.362 E6.18577
G1 X128.518 Y125.13 E6.26072
G1 X128.243 Y125.875 E6.33576
G1 X127.896 Y126.588 E6.4107
G1 X127.478 Y127.263 E6.48573
G1 X126.995 Y127.892 E6.56067
G1 X126.568 Y128.353 E6.62005
G1 X126.465 Y128.456 E6.63382
G1 X125.877 Y128.989 E6.70881
G1 X125.238 Y129.459 E6.78377
G1 X124.554 Y129.862 E6.8588
G1 X123.834 Y130.195 E6.93376
G1 X123.084 Y130.453 E7.00871
G1 X122.311 Y130.635 E7.08376
G1 X121.525 Y130.738 E7.15867
G1 X120.897 Y130.763 E7.21806
G1 X102.25 Y130.763 E8.98021
G1 X101.458 Y130.723 E9.05514
G1 X100.673 Y130.604 E9.13017
G1 X99.905 Y130.406 E9.20512
G1 X99.16 Y130.131 E9.28017
G1 X98.447 Y129.784 E9.3551
G1 X97.772 Y129.366 E9.43013
G1 X97.27 Y128.988 E9.48952
G1 X97.172 Y128.908 E9.50147
G1 X96.583 Y128.376 E9.57647
G1 X96.051 Y127.788 E9.65141
G1 X95.581 Y127.149 E9.72637
G1 X95.178 Y126.465 E9.80139
G1 X94.845 Y125.745 E9.87636
G1 X94.587 Y124.995 E9.95131
G1 X94.392 Y124.15 E10.03326
G1 X94.268 Y123.433 E10.10202
G1 X94.173 Y122.645 E10.17703
G1 X94.153 Y122.1 E10.22856
G1 X94.125 Y96.556 E12.64247
G1 X94.164 Y95.763 E12.7175
G1 X94.283 Y94.979 E12.79244
G1 X94.48 Y94.21 E12.86746
G1 X94.753 Y93.465 E12.94244
G1 X95.1 Y92.751 E13.01746
G1 X95.517 Y92.076 E13.09243
G1 X96 Y91.447 E13.16738
G1 X96.432 Y90.979 E13.22756
G0 F4500 X96.679 Y91.226
G1 F1800 X96.782 Y91.123 E13.24133
G1 X97.358 Y90.604 E13.3146
G1 X97.984 Y90.146 E13.3879
G1 X98.655 Y89.756 E13.46124
G1 X99.361 Y89.436 E13.53449
G1 X100.097 Y89.191 E13.60779
G1 X100.855 Y89.023 E13.68116
G1 X101.625 Y88.934 E13.75441
G1 X102.103 Y88.919 E13.79961
G1 X120.897 Y88.919 E15.57564
G1 X121.672 Y88.959 E15.64897
G1 X122.438 Y89.078 E15.72223
G1 X123.188 Y89.276 E15.79553
G1 X123.914 Y89.55 E15.86886
G1 X124.607 Y89.897 E15.9421
G1 X125.261 Y90.314 E16.0154
G1 X125.869 Y90.796 E16.08872
G1 X126.218 Y91.123 E16.13392
G1 X126.321 Y91.226 E16.14768
G1 X126.84 Y91.802 E16.22095
G1 X127.298 Y92.428 E16.29425
G1 X127.688 Y93.099 E16.36759
G1 X128.008 Y93.805 E16.44084
G1 X128.253 Y94.541 E16.51415
G1 X128.421 Y95.299 E16.58752
G1 X128.51 Y96.069 E16.66076
G1 X128.525 Y96.547 E16.70596
G1 X128.525 Y122.785 E19.18545
G1 X128.485 Y123.56 E19.25878
G1 X128.366 Y124.326 E19.33204
G1 X128.168 Y125.076 E19.40534
G1 X127.894 Y125.802 E19.47867
G1 X127.547 Y126.495 E19.55191
G1 X127.13 Y127.149 E19.62521
G1 X126.648 Y127.757 E19.69853
G1 X126.321 Y128.106 E19.74373
G1 X126.218 Y128.209 E19.75749
G1 X125.642 Y128.728 E19.83076
G1 X125.016 Y129.186 E19.90406
G1 X124.345 Y129.576 E19.9774
G1 X123.639 Y129.896 E20.05065
G1 X122.903 Y130.141 E20.12396
G1 X122.145 Y130.309 E20.19733
G1 X121.375 Y130.398 E20.27057
G1 X120.897 Y130.413 E20.31577
G1 X102.25 Y130.413 E22.07791
G1 X101.475 Y130.373 E22.15124
G1 X100.709 Y130.254 E22.2245
G1 X99.959 Y130.056 E22.2978
G1 X99.233 Y129.782 E22.37113
G1 X98.54 Y129.435 E22.44437
G1 X97.886 Y129.018 E22.51767
G1 X97.491 Y128.717 E22.5646
G1 X97.393 Y128.637 E22.57656
G1 X96.819 Y128.117 E22.64975
G1 X96.3 Y127.539 E22.72316
G1 X95.845 Y126.912 E22.79636
G1 X95.456 Y126.241 E22.86966
G1 X95.138 Y125.533 E22.943
G1 X94.895 Y124.797 E23.01625
G1 X94.737 Y124.09 E23.08471
G1 X94.613 Y123.373 E23.15347
G1 X94.52 Y122.603 E23.22676
G1 X94.503 Y122.099 E23.27442
G1 X94.475 Y96.555 E25.68833
G1 X94.514 Y95.781 E25.76157
G1 X94.633 Y95.014 E25.83491
G1 X94.83 Y94.264 E25.90819
G1 X95.103 Y93.538 E25.98149
G1 X95.449 Y92.844 E26.05477
G1 X95.865 Y92.189 E26.1281
G1 X96.346 Y91.581 E26.20136
G1 X96.679 Y91.226 E26.24736
G0 F4500 X96.927 Y91.474
G1 F1800 X97.03 Y91.371 E26.26112
G1 X97.593 Y90.864 E26.33272
G1 X98.206 Y90.42 E26.40425
G1 X98.863 Y90.042 E26.47588
G1 X99.555 Y89.736 E26.54738
G1 X100.277 Y89.505 E26.61901
G1 X101.018 Y89.351 E26.69053
G1 X102.103 Y89.269 E26.79336
G1 X120.897 Y89.269 E28.56939
G1 X121.653 Y89.309 E28.64093
G1 X122.401 Y89.428 E28.71251
G1 X123.132 Y89.626 E28.78408
G1 X123.839 Y89.9 E28.85573
G1 X124.512 Y90.246 E28.92724
G1 X125.145 Y90.662 E28.99882
G1 X125.97 Y91.371 E29.10162
G1 X126.073 Y91.474 E29.11539
G1 X126.58 Y92.037 E29.18698
G1 X127.024 Y92.65 E29.25851
G1 X127.402 Y93.307 E29.33014
G1 X127.708 Y93.999 E29.40164
G1 X127.939 Y94.721 E29.47328
G1 X128.093 Y95.462 E29.5448
G1 X128.175 Y96.547 E29.64762
G1 X128.175 Y122.785 E32.12711
G1 X128.135 Y123.541 E32.19866
G1 X128.016 Y124.289 E32.27023
G1 X127.818 Y125.02 E32.3418
G1 X127.544 Y125.727 E32.41345
G1 X127.198 Y126.4 E32.48496
G1 X126.782 Y127.033 E32.55654
G1 X126.073 Y127.858 E32.65934
G1 X125.97 Y127.961 E32.67311
G1 X125.407 Y128.468 E32.7447
G1 X124.794 Y128.912 E32.81623
G1 X124.137 Y129.29 E32.88786
G1 X123.445 Y129.596 E32.95936
G1 X122.723 Y129.827 E33.031
G1 X121.982 Y129.981 E33.10252
G1 X120.897 Y130.063 E33.20534
G1 X102.25 Y130.063 E34.96749
G1 X101.494 Y130.023 E35.03903
G1 X100.746 Y129.904 E35.1106
G1 X100.015 Y129.706 E35.18217
G1 X99.308 Y129.432 E35.25382
G1 X98.635 Y129.086 E35.32534
G1 X97.713 Y128.446 E35.4314
G1 X97.615 Y128.366 E35.44335
G1 X97.054 Y127.857 E35.51494
G1 X96.55 Y127.291 E35.58656
G1 X96.109 Y126.676 E35.65807
G1 X95.735 Y126.017 E35.72968
G1 X95.432 Y125.323 E35.80124
G1 X95.205 Y124.601 E35.87276
G1 X95.082 Y124.031 E35.92786
G1 X94.958 Y123.314 E35.99663
G1 X94.868 Y122.562 E36.0682
G1 X94.853 Y122.099 E36.11197
G1 X94.825 Y96.555 E38.52588
G1 X94.864 Y95.799 E38.59742
G1 X94.983 Y95.051 E38.669
G1 X95.18 Y94.319 E38.74063
G1 X95.452 Y93.613 E38.81213
G1 X95.798 Y92.939 E38.88372
G1 X96.213 Y92.305 E38.95533
G1 X96.927 Y91.474 E39.05887
G0 F4500 X97.174 Y91.721
G1 F1800 X97.277 Y91.618 E39.07263
G1 X97.827 Y91.125 E39.14243
G1 X98.427 Y90.694 E39.21224
G1 X99.07 Y90.33 E39.28207
G1 X99.748 Y90.038 E39.35183
G1 X100.454 Y89.821 E39.42162
G1 X101.18 Y89.682 E39.49148
G1 X102.103 Y89.619 E39.5789
G1 X120.897 Y89.619 E41.35494
G1 X121.635 Y89.659 E41.42478
G1 X122.363 Y89.778 E41.49449
G1 X123.075 Y89.976 E41.56433
G1 X123.761 Y90.249 E41.6341
G1 X124.414 Y90.595 E41.70393
G1 X125.026 Y91.009 E41.77376
G1 X125.723 Y91.618 E41.86122
G1 X125.826 Y91.721 E41.87499
G1 X126.319 Y92.271 E41.94479
G1 X126.75 Y92.871 E42.0146
G1 X127.114 Y93.514 E42.08443
G1 X127.406 Y94.192 E42.15419
G1 X127.623 Y94.898 E42.22398
G1 X127.762 Y95.624 E42.29384
G1 X127.825 Y96.547 E42.38126
G1 X127.825 Y122.785 E44.86075
G1 X127.785 Y123.523 E44.9306
G1 X127.666 Y124.251 E45.00031
G1 X127.468 Y124.963 E45.07014
G1 X127.195 Y125.649 E45.13992
G1 X126.849 Y126.302 E45.20975
G1 X126.435 Y126.914 E45.27958
G1 X125.826 Y127.611 E45.36704
G1 X125.723 Y127.714 E45.38081
G1 X125.173 Y128.207 E45.45061
G1 X124.573 Y128.638 E45.52042
G1 X123.93 Y129.002 E45.59024
G1 X123.252 Y129.294 E45.66
G1 X122.546 Y129.511 E45.7298
G1 X121.82 Y129.65 E45.79965
G1 X120.897 Y129.713 E45.88708
G1 X102.25 Y129.713 E47.64922
G1 X101.512 Y129.673 E47.71907
G1 X100.784 Y129.554 E47.78877
G1 X100.072 Y129.356 E47.85861
G1 X99.386 Y129.083 E47.92838
G1 X98.733 Y128.737 E47.99822
G1 X97.934 Y128.175 E48.09053
G1 X97.836 Y128.095 E48.10249
G1 X97.29 Y127.598 E48.17226
G1 X96.801 Y127.044 E48.24209
G1 X96.374 Y126.441 E48.31191
G1 X96.016 Y125.795 E48.38171
G1 X95.729 Y125.115 E48.45146
G1 X95.517 Y124.407 E48.5213
G1 X95.427 Y123.971 E48.56337
G1 X95.303 Y123.254 E48.63213
G1 X95.217 Y122.52 E48.70197
G1 X95.203 Y122.098 E48.74187
G1 X95.175 Y96.554 E51.15578
G1 X95.214 Y95.817 E51.22552
G1 X95.333 Y95.088 E51.29532
G1 X95.53 Y94.376 E51.36514
G1 X95.802 Y93.689 E51.43496
G1 X96.147 Y93.036 E51.50475
G1 X96.561 Y92.424 E51.57458
G1 X97.174 Y91.721 E51.66272
G0 F4500 X97.421 Y91.968
G1 F1800 X97.524 Y91.865 E51.67648
G1 X98.061 Y91.386 E51.74449
G1 X98.647 Y90.969 E51.81245
G1 X99.276 Y90.619 E51.88048
G1 X99.939 Y90.341 E51.94841
G1 X100.63 Y90.139 E52.01645
G1 X101.338 Y90.014 E52.08439
G1 X102.103 Y89.969 E52.1568
G1 X120.897 Y89.969 E53.93284
G1 X121.615 Y90.009 E54.00079
G1 X122.325 Y90.128 E54.06882
G1 X123.017 Y90.326 E54.13684
G1 X123.682 Y90.599 E54.20477
G1 X124.314 Y90.944 E54.27282
G1 X124.903 Y91.357 E54.3408
G1 X125.476 Y91.865 E54.41316
G1 X125.579 Y91.968 E54.42693
G1 X126.058 Y92.505 E54.49493
G1 X126.475 Y93.091 E54.5629
G1 X126.825 Y93.72 E54.63092
G1 X127.103 Y94.383 E54.69886
G1 X127.305 Y95.074 E54.76689
G1 X127.43 Y95.782 E54.83483
G1 X127.475 Y96.547 E54.90725
G1 X127.475 Y122.785 E57.38674
G1 X127.435 Y123.503 E57.4547
G1 X127.316 Y124.213 E57.52273
G1 X127.118 Y124.905 E57.59074
G1 X126.845 Y125.57 E57.65868
G1 X126.5 Y126.202 E57.72672
G1 X126.087 Y126.791 E57.7947
G1 X125.579 Y127.364 E57.86706
G1 X125.476 Y127.467 E57.88083
G1 X124.939 Y127.946 E57.94883
G1 X124.353 Y128.363 E58.0168
G1 X123.724 Y128.713 E58.08482
G1 X123.061 Y128.991 E58.15276
G1 X122.37 Y129.193 E58.22079
G1 X121.662 Y129.318 E58.28873
G1 X120.897 Y129.363 E58.36115
G1 X102.25 Y129.363 E60.12329
G1 X101.532 Y129.323 E60.19125
G1 X100.822 Y129.204 E60.25928
G1 X100.13 Y129.006 E60.3273
G1 X99.465 Y128.733 E60.39523
G1 X98.833 Y128.388 E60.46327
G1 X98.155 Y127.904 E60.54199
G1 X98.057 Y127.824 E60.55395
G1 X97.526 Y127.339 E60.62191
G1 X97.052 Y126.798 E60.68988
G1 X96.641 Y126.207 E60.75791
G1 X96.298 Y125.575 E60.82586
G1 X96.027 Y124.908 E60.89389
G1 X95.772 Y123.911 E60.99114
G1 X95.648 Y123.194 E61.05991
G1 X95.565 Y122.48 E61.12783
G1 X95.553 Y122.098 E61.16395
G1 X95.525 Y96.554 E63.57786
G1 X95.564 Y95.836 E63.64581
G1 X95.683 Y95.126 E63.71384
G1 X95.879 Y94.434 E63.78181
G1 X96.152 Y93.768 E63.84983
G1 X96.496 Y93.136 E63.91783
G1 X96.908 Y92.547 E63.98575
G1 X97.421 Y91.968 E64.05885
G0 F4500 X97.669 Y92.216
G1 F1800 X97.772 Y92.113 E64.07262
G1 X98.294 Y91.647 E64.13875
G1 X98.866 Y91.244 E64.20487
G1 X99.48 Y90.909 E64.27097
G1 X100.129 Y90.646 E64.33714
G1 X100.803 Y90.459 E64.40324
G1 X101.494 Y90.349 E64.46936
G1 X102.103 Y90.319 E64.52698
G1 X120.897 Y90.319 E66.30301
G1 X121.596 Y90.359 E66.36918
G1 X122.285 Y90.478 E66.43525
G1 X122.956 Y90.676 E66.50136
G1 X123.601 Y90.948 E66.56752
G1 X124.21 Y91.292 E66.63361
G1 X124.776 Y91.704 E66.69977
G1 X125.228 Y92.113 E66.75737
G1 X125.331 Y92.216 E66.77114
G1 X125.797 Y92.738 E66.83727
G1 X126.2 Y93.31 E66.90339
G1 X126.535 Y93.924 E66.96949
G1 X126.798 Y94.573 E67.03566
G1 X126.985 Y95.247 E67.10176
G1 X127.095 Y95.938 E67.16788
G1 X127.125 Y96.547 E67.2255
G1 X127.125 Y122.785 E69.70499
G1 X127.085 Y123.484 E69.77116
G1 X126.966 Y124.173 E69.83723
G1 X126.768 Y124.844 E69.90334
G1 X126.496 Y125.489 E69.96949
G1 X126.152 Y126.098 E70.03559
G1 X125.74 Y126.664 E70.10175
G1 X125.331 Y127.116 E70.15935
G1 X125.228 Y127.219 E70.17312
G1 X124.706 Y127.685 E70.23924
G1 X124.134 Y128.088 E70.30537
G1 X123.52 Y128.423 E70.37146
G1 X122.871 Y128.686 E70.43764
G1 X122.197 Y128.873 E70.50374
G1 X121.506 Y128.983 E70.56986
G1 X120.897 Y129.013 E70.62748
G1 X102.25 Y129.013 E72.38962
G1 X101.551 Y128.973 E72.45578
G1 X100.862 Y128.854 E72.52186
G1 X100.191 Y128.656 E72.58797
G1 X99.546 Y128.384 E72.65412
G1 X98.937 Y128.04 E72.72022
G1 X98.377 Y127.633 E72.78564
G1 X98.279 Y127.553 E72.79759
G1 X97.763 Y127.08 E72.86374
G1 X97.304 Y126.552 E72.92986
G1 X96.909 Y125.974 E72.99601
G1 X96.582 Y125.356 E73.06209
G1 X96.328 Y124.704 E73.12821
G1 X96.117 Y123.852 E73.21116
G1 X95.993 Y123.135 E73.27992
G1 X95.903 Y122.098 E73.37828
G1 X95.875 Y96.554 E75.79219
G1 X95.914 Y95.855 E75.85835
G1 X96.033 Y95.166 E75.92443
G1 X96.229 Y94.494 E75.99058
G1 X96.501 Y93.849 E76.05673
G1 X96.845 Y93.24 E76.12282
G1 X97.256 Y92.673 E76.189
G1 X97.669 Y92.216 E76.24721
G0 F4500 X97.916 Y92.463
G1 F1800 X98.019 Y92.36 E76.26098
G1 X98.527 Y91.909 E76.32517
G1 X99.085 Y91.521 E76.3894
G1 X99.684 Y91.2 E76.45362
G1 X100.316 Y90.952 E76.51778
G1 X100.974 Y90.78 E76.58205
G1 X101.647 Y90.687 E76.64625
G1 X102.103 Y90.669 E76.68937
G1 X120.897 Y90.669 E78.46541
G1 X121.575 Y90.709 E78.52959
G1 X122.244 Y90.828 E78.5938
G1 X122.894 Y91.025 E78.65799
G1 X123.517 Y91.297 E78.72223
G1 X124.103 Y91.641 E78.78644
G1 X124.645 Y92.051 E78.85066
G1 X124.981 Y92.36 E78.8938
G1 X125.084 Y92.463 E78.90757
G1 X125.535 Y92.971 E78.97176
G1 X125.923 Y93.529 E79.03599
G1 X126.244 Y94.128 E79.10021
G1 X126.492 Y94.76 E79.16437
G1 X126.664 Y95.418 E79.22864
G1 X126.757 Y96.091 E79.29284
G1 X126.775 Y96.547 E79.33596
G1 X126.775 Y122.785 E81.81546
G1 X126.735 Y123.463 E81.87964
G1 X126.616 Y124.132 E81.94385
G1 X126.419 Y124.782 E82.00804
G1 X126.147 Y125.405 E82.07228
G1 X125.803 Y125.991 E82.13649
G1 X125.393 Y126.533 E82.20071
G1 X125.084 Y126.869 E82.24385
G1 X124.981 Y126.972 E82.25761
G1 X124.473 Y127.423 E82.32181
G1 X123.915 Y127.811 E82.38604
G1 X123.316 Y128.132 E82.45026
G1 X122.684 Y128.38 E82.51441
G1 X122.026 Y128.552 E82.57868
G1 X121.353 Y128.645 E82.64289
G1 X120.897 Y128.663 E82.68601
G1 X102.25 Y128.663 E84.44815
G1 X101.572 Y128.623 E84.51234
G1 X100.903 Y128.504 E84.57655
G1 X100.253 Y128.307 E84.64073
G1 X99.63 Y128.035 E84.70497
G1 X99.044 Y127.691 E84.76919
G1 X98.598 Y127.362 E84.82156
G1 X98.5 Y127.282 E84.83352
G1 X98 Y126.822 E84.89772
G1 X97.557 Y126.306 E84.96199
G1 X97.178 Y125.743 E85.02612
G1 X96.868 Y125.138 E85.09036
G1 X96.631 Y124.501 E85.15459
G1 X96.461 Y123.792 E85.22349
G1 X96.337 Y123.075 E85.29225
G1 X96.253 Y122.097 E85.38502
G1 X96.225 Y96.553 E87.79892
G1 X96.264 Y95.875 E87.8631
G1 X96.383 Y95.206 E87.92731
G1 X96.579 Y94.556 E87.99147
G1 X96.851 Y93.933 E88.05571
G1 X97.193 Y93.346 E88.11991
G1 X97.602 Y92.804 E88.18408
G1 X97.916 Y92.463 E88.22788
G0 F4500 X98.164 Y92.711
G1 F1800 X98.267 Y92.608 E88.24165
G1 X98.76 Y92.171 E88.3039
G1 X99.302 Y91.798 E88.36608
G1 X99.886 Y91.493 E88.42834
G1 X100.502 Y91.261 E88.49054
G1 X101.142 Y91.105 E88.5528
G1 X102.103 Y91.019 E88.64397
G1 X120.897 Y91.019 E90.42001
G1 X121.554 Y91.059 E90.48221
G1 X122.202 Y91.178 E90.54447
G1 X122.83 Y91.375 E90.60666
G1 X123.43 Y91.647 E90.66892
G1 X123.993 Y91.989 E90.73117
G1 X124.733 Y92.608 E90.82234
G1 X124.836 Y92.711 E90.8361
G1 X125.273 Y93.204 E90.89836
G1 X125.646 Y93.746 E90.96054
G1 X125.951 Y94.33 E91.0228
G1 X126.183 Y94.946 E91.085
G1 X126.339 Y95.586 E91.14725
G1 X126.425 Y96.547 E91.23843
G1 X126.425 Y122.785 E93.71792
G1 X126.385 Y123.442 E93.78012
G1 X126.266 Y124.09 E93.84238
G1 X126.069 Y124.718 E93.90458
G1 X125.797 Y125.318 E93.96683
G1 X125.455 Y125.881 E94.02908
G1 X124.836 Y126.621 E94.12025
G1 X124.733 Y126.724 E94.13402
G1 X124.24 Y127.161 E94.19628
G1 X123.698 Y127.534 E94.25845
G1 X123.114 Y127.839 E94.32071
G1 X122.498 Y128.071 E94.38292
G1 X121.858 Y128.227 E94.44517
G1 X120.897 Y128.313 E94.53635
G1 X102.25 Y128.313 E96.29849
G1 X101.593 Y128.273 E96.36069
G1 X100.945 Y128.154 E96.42295
G1 X100.317 Y127.957 E96.48515
G1 X99.717 Y127.685 E96.5474
G1 X99.154 Y127.343 E96.60965
G1 X98.819 Y127.091 E96.64926
G1 X98.721 Y127.011 E96.66122
G1 X98.237 Y126.564 E96.72348
G1 X97.811 Y126.062 E96.7857
G1 X97.449 Y125.512 E96.84792
G1 X97.156 Y124.922 E96.91017
G1 X96.937 Y124.302 E96.97231
G1 X96.806 Y123.732 E97.02758
G1 X96.682 Y123.015 E97.09634
G1 X96.603 Y122.097 E97.18341
G1 X96.575 Y96.553 E99.59732
