;FLAVOR:UltiGCode
;TIME:1884
;MATERIAL:3504
;MATERIAL2:0
;NOZZLE_DIAMETER:0.4
;Generated with Cura_SteamEngine 3.6.0
M82 ;absolute extrusion mode

G92 E0
G10
;LAYER_COUNT:227
;LAYER:0
M107
G0 F4500 X96.535 Y97.226 Z0.27
;TYPE:SKIRT
G11
G1 F1800 X97.123 Y96.693 E0.075
G1 X97.762 Y96.223 E0.14996
G1 X98.446 Y95.82 E0.22498
G1 X99.166 Y95.487 E0.29995
G1 X99.916 Y95.229 E0.3749
G1 X100.689 Y95.047 E0.44994
G1 X101.475 Y94.944 E0.52485
G1 X102.103 Y94.919 E0.58425
G1 X120.897 Y94.919 E2.36028
G1 X121.689 Y94.959 E2.43522
G1 X122.474 Y95.078 E2.51025
G1 X123.242 Y95.276 E2.5852
G1 X123.987 Y95.551 E2.66024
G1 X124.7 Y95.898 E2.73518
G1 X125.375 Y96.316 E2.81021
G1 X126.004 Y96.799 E2.88515
G1 X126.465 Y97.226 E2.94453
G1 X126.568 Y97.329 E2.9583
G1 X127.101 Y97.917 E3.03329
G1 X127.571 Y98.556 E3.10825
G1 X127.974 Y99.24 E3.18328
G1 X128.307 Y99.96 E3.25824
G1 X128.565 Y100.71 E3.33319
G1 X128.747 Y101.483 E3.40824
G1 X128.85 Y102.269 E3.48315
G1 X128.875 Y102.897 E3.54254
G1 X128.875 Y120.103 E5.16851
G1 X128.835 Y120.895 E5.24345
G1 X128.716 Y121.68 E5.31848
G1 X128.518 Y122.448 E5.39343
G1 X128.243 Y123.193 E5.46848
G1 X127.896 Y123.906 E5.54341
G1 X127.478 Y124.581 E5.61844
G1 X126.995 Y125.21 E5.69338
G1 X126.568 Y125.671 E5.75276
G1 X126.465 Y125.774 E5.76653
G1 X125.877 Y126.307 E5.84152
G1 X125.238 Y126.777 E5.91648
G1 X124.554 Y127.18 E5.99151
G1 X123.834 Y127.513 E6.06647
G1 X123.084 Y127.771 E6.14142
G1 X122.311 Y127.953 E6.21647
G1 X121.525 Y128.056 E6.29138
G1 X120.897 Y128.081 E6.35077
G1 X102.103 Y128.081 E8.12681
G1 X101.311 Y128.041 E8.20175
G1 X100.526 Y127.922 E8.27678
G1 X99.758 Y127.724 E8.35173
G1 X99.013 Y127.449 E8.42677
G1 X98.3 Y127.102 E8.50171
G1 X97.625 Y126.684 E8.57673
G1 X96.996 Y126.201 E8.65168
G1 X96.535 Y125.774 E8.71106
G1 X96.432 Y125.671 E8.72482
G1 X95.899 Y125.083 E8.79982
G1 X95.429 Y124.444 E8.87478
G1 X95.026 Y123.76 E8.9498
G1 X94.693 Y123.04 E9.02477
G1 X94.435 Y122.29 E9.09972
G1 X94.253 Y121.517 E9.17477
G1 X94.15 Y120.731 E9.24968
G1 X94.125 Y120.103 E9.30907
G1 X94.125 Y102.897 E10.93504
G1 X94.165 Y102.105 E11.00998
G1 X94.284 Y101.32 E11.08501
G1 X94.482 Y100.552 E11.15996
G1 X94.757 Y99.807 E11.235
G1 X95.104 Y99.094 E11.30994
G1 X95.522 Y98.419 E11.38496
G1 X96.005 Y97.79 E11.45991
G1 X96.432 Y97.329 E11.51929
G1 X96.535 Y97.226 E11.53305
G0 F4500 X96.782 Y97.473
G1 F1800 X97.358 Y96.954 E11.60632
G1 X97.984 Y96.496 E11.67962
G1 X98.655 Y96.106 E11.75296
G1 X99.361 Y95.786 E11.82621
G1 X100.097 Y95.541 E11.89952
G1 X100.855 Y95.373 E11.97289
G1 X101.625 Y95.284 E12.04614
G1 X102.103 Y95.269 E12.09133
G1 X120.897 Y95.269 E13.86736
G1 X121.672 Y95.309 E13.9407
G1 X122.438 Y95.428 E14.01395
G1 X123.188 Y95.626 E14.08726
G1 X123.914 Y95.9 E14.16059
G1 X124.607 Y96.247 E14.23383
G1 X125.261 Y96.664 E14.30712
G1 X125.869 Y97.146 E14.38045
G1 X126.218 Y97.473 E14.42564
G1 X126.321 Y97.576 E14.43941
G1 X126.84 Y98.152 E14.51267
G1 X127.298 Y98.778 E14.58597
G1 X127.688 Y99.449 E14.65932
G1 X128.008 Y100.155 E14.73257
G1 X128.253 Y100.891 E14.80587
G1 X128.421 Y101.649 E14.87924
G1 X128.51 Y102.419 E14.95249
G1 X128.525 Y102.897 E14.99768
G1 X128.525 Y120.103 E16.62365
G1 X128.485 Y120.878 E16.69698
G1 X128.366 Y121.644 E16.77024
G1 X128.168 Y122.394 E16.84354
G1 X127.894 Y123.12 E16.91687
G1 X127.547 Y123.813 E16.99011
G1 X127.13 Y124.467 E17.06341
G1 X126.648 Y125.075 E17.13673
G1 X126.321 Y125.424 E17.18193
G1 X126.218 Y125.527 E17.19569
G1 X125.642 Y126.046 E17.26896
G1 X125.016 Y126.504 E17.34226
G1 X124.345 Y126.894 E17.4156
G1 X123.639 Y127.214 E17.48885
G1 X122.903 Y127.459 E17.56216
G1 X122.145 Y127.627 E17.63553
G1 X121.375 Y127.716 E17.70878
G1 X120.897 Y127.731 E17.75397
G1 X102.103 Y127.731 E19.53
G1 X101.328 Y127.691 E19.60334
G1 X100.562 Y127.572 E19.67659
G1 X99.812 Y127.374 E19.74989
G1 X99.086 Y127.1 E19.82323
G1 X98.393 Y126.753 E19.89646
G1 X97.739 Y126.336 E19.96976
G1 X97.131 Y125.854 E20.04308
G1 X96.782 Y125.527 E20.08828
G1 X96.679 Y125.424 E20.10204
G1 X96.16 Y124.848 E20.17531
G1 X95.702 Y124.222 E20.24861
G1 X95.312 Y123.551 E20.32195
G1 X94.992 Y122.845 E20.3952
G1 X94.747 Y122.109 E20.46851
G1 X94.579 Y121.351 E20.54188
G1 X94.49 Y120.581 E20.61513
G1 X94.475 Y120.103 E20.66032
G1 X94.475 Y102.897 E22.28629
G1 X94.515 Y102.122 E22.35962
G1 X94.634 Y101.356 E22.43288
G1 X94.832 Y100.606 E22.50618
G1 X95.106 Y99.88 E22.57951
G1 X95.453 Y99.187 E22.65275
G1 X95.87 Y98.533 E22.72605
G1 X96.352 Y97.925 E22.79937
G1 X96.679 Y97.576 E22.84456
G1 X96.782 Y97.473 E22.85833
G0 F4500 X97.03 Y97.721
G1 F1800 X97.593 Y97.214 E22.92993
G1 X98.206 Y96.77 E23.00145
G1 X98.863 Y96.392 E23.07308
G1 X99.555 Y96.086 E23.14458
G1 X100.277 Y95.855 E23.21622
G1 X101.018 Y95.701 E23.28774
G1 X102.103 Y95.619 E23.39057
G1 X120.897 Y95.619 E25.1666
G1 X121.653 Y95.659 E25.23814
G1 X122.401 Y95.778 E25.30972
G1 X123.132 Y95.976 E25.38128
G1 X123.839 Y96.25 E25.45294
G1 X124.512 Y96.596 E25.52445
G1 X125.145 Y97.012 E25.59603
G1 X125.97 Y97.721 E25.69883
G1 X126.073 Y97.824 E25.71259
G1 X126.58 Y98.387 E25.78419
G1 X127.024 Y99 E25.85572
G1 X127.402 Y99.657 E25.92735
G1 X127.708 Y100.349 E25.99885
G1 X127.939 Y101.071 E26.07048
G1 X128.093 Y101.812 E26.142
G1 X128.175 Y102.897 E26.24483
G1 X128.175 Y120.103 E27.8708
G1 X128.135 Y120.859 E27.94234
G1 X128.016 Y121.607 E28.01391
G1 X127.818 Y122.338 E28.08548
G1 X127.544 Y123.045 E28.15714
G1 X127.198 Y123.718 E28.22865
G1 X126.782 Y124.351 E28.30023
G1 X126.073 Y125.176 E28.40302
G1 X125.97 Y125.279 E28.41679
G1 X125.407 Y125.786 E28.48839
G1 X124.794 Y126.23 E28.55991
G1 X124.137 Y126.608 E28.63154
G1 X123.445 Y126.914 E28.70304
G1 X122.723 Y127.145 E28.77468
G1 X121.982 Y127.299 E28.8462
G1 X120.897 Y127.381 E28.94903
G1 X102.103 Y127.381 E30.72506
G1 X101.347 Y127.341 E30.7966
G1 X100.599 Y127.222 E30.86818
G1 X99.868 Y127.024 E30.93974
G1 X99.161 Y126.75 E31.0114
G1 X98.488 Y126.404 E31.08291
G1 X97.855 Y125.988 E31.15449
G1 X97.03 Y125.279 E31.25729
G1 X96.927 Y125.176 E31.27105
G1 X96.42 Y124.613 E31.34265
G1 X95.976 Y124 E31.41418
G1 X95.598 Y123.343 E31.48581
G1 X95.292 Y122.651 E31.55731
G1 X95.061 Y121.929 E31.62894
G1 X94.907 Y121.188 E31.70046
G1 X94.825 Y120.103 E31.80329
G1 X94.825 Y102.897 E33.42926
G1 X94.865 Y102.141 E33.5008
G1 X94.984 Y101.393 E33.57237
G1 X95.182 Y100.662 E33.64394
G1 X95.456 Y99.955 E33.7156
G1 X95.802 Y99.282 E33.78711
G1 X96.218 Y98.649 E33.85869
G1 X96.927 Y97.824 E33.96148
G1 X97.03 Y97.721 E33.97525
G0 F4500 X97.277 Y97.968
G1 F1800 X97.827 Y97.475 E34.04505
G1 X98.427 Y97.044 E34.11486
G1 X99.07 Y96.68 E34.18468
G1 X99.748 Y96.388 E34.25444
G1 X100.454 Y96.171 E34.32424
G1 X101.18 Y96.032 E34.3941
G1 X102.103 Y95.969 E34.48152
G1 X120.897 Y95.969 E36.25755
G1 X121.635 Y96.009 E36.3274
G1 X122.363 Y96.128 E36.39711
G1 X123.075 Y96.326 E36.46694
G1 X123.761 Y96.599 E36.53672
G1 X124.414 Y96.945 E36.60655
G1 X125.026 Y97.359 E36.67638
G1 X125.723 Y97.968 E36.76384
G1 X125.826 Y98.071 E36.77761
G1 X126.319 Y98.621 E36.84741
G1 X126.75 Y99.221 E36.91722
G1 X127.114 Y99.864 E36.98704
G1 X127.406 Y100.542 E37.0568
G1 X127.623 Y101.248 E37.1266
G1 X127.762 Y101.974 E37.19645
G1 X127.825 Y102.897 E37.28388
G1 X127.825 Y120.103 E38.90985
G1 X127.785 Y120.841 E38.97969
G1 X127.666 Y121.569 E39.0494
G1 X127.468 Y122.281 E39.11924
G1 X127.195 Y122.967 E39.18901
G1 X126.849 Y123.62 E39.25885
G1 X126.435 Y124.232 E39.32867
G1 X125.826 Y124.929 E39.41614
G1 X125.723 Y125.032 E39.4299
G1 X125.173 Y125.525 E39.4997
G1 X124.573 Y125.956 E39.56951
G1 X123.93 Y126.32 E39.63934
G1 X123.252 Y126.612 E39.7091
G1 X122.546 Y126.829 E39.77889
G1 X121.82 Y126.968 E39.84875
G1 X120.897 Y127.031 E39.93617
G1 X102.103 Y127.031 E41.71221
G1 X101.365 Y126.991 E41.78205
G1 X100.637 Y126.872 E41.85176
G1 X99.925 Y126.674 E41.9216
G1 X99.239 Y126.401 E41.99137
G1 X98.586 Y126.055 E42.0612
G1 X97.974 Y125.641 E42.13103
G1 X97.277 Y125.032 E42.2185
G1 X97.174 Y124.929 E42.23226
G1 X96.681 Y124.379 E42.30206
G1 X96.25 Y123.779 E42.37187
G1 X95.886 Y123.136 E42.4417
G1 X95.594 Y122.458 E42.51146
G1 X95.377 Y121.752 E42.58125
G1 X95.238 Y121.026 E42.65111
G1 X95.175 Y120.103 E42.73853
G1 X95.175 Y102.897 E44.3645
G1 X95.215 Y102.159 E44.43434
G1 X95.334 Y101.431 E44.50405
G1 X95.532 Y100.719 E44.57389
G1 X95.805 Y100.033 E44.64366
G1 X96.151 Y99.38 E44.7135
G1 X96.565 Y98.768 E44.78332
G1 X97.174 Y98.071 E44.87079
G1 X97.277 Y97.968 E44.88455
G0 F4500 X97.524 Y98.215
G1 F1800 X98.061 Y97.736 E44.95256
G1 X98.647 Y97.319 E45.02052
G1 X99.276 Y96.969 E45.08855
G1 X99.939 Y96.691 E45.15648
G1 X100.63 Y96.489 E45.22452
G1 X101.338 Y96.364 E45.29246
G1 X102.103 Y96.319 E45.36487
G1 X120.897 Y96.319 E47.14091
G1 X121.615 Y96.359 E47.20886
G1 X122.325 Y96.478 E47.27689
G1 X123.017 Y96.676 E47.34491
G1 X123.682 Y96.949 E47.41284
G1 X124.314 Y97.294 E47.48089
G1 X124.903 Y97.707 E47.54887
G1 X125.476 Y98.215 E47.62123
G1 X125.579 Y98.318 E47.635
G1 X126.058 Y98.855 E47.703
G1 X126.475 Y99.441 E47.77097
G1 X126.825 Y100.07 E47.83899
G1 X127.103 Y100.733 E47.90693
G1 X127.305 Y101.424 E47.97496
G1 X127.43 Y102.132 E48.0429
G1 X127.475 Y102.897 E48.11532
G1 X127.475 Y120.103 E49.74128
G1 X127.435 Y120.821 E49.80924
G1 X127.316 Y121.531 E49.87727
G1 X127.118 Y122.223 E49.94529
G1 X126.845 Y122.888 E50.01322
G1 X126.5 Y123.52 E50.08127
G1 X126.087 Y124.109 E50.14925
G1 X125.579 Y124.682 E50.22161
G1 X125.476 Y124.785 E50.23538
G1 X124.939 Y125.264 E50.30338
G1 X124.353 Y125.681 E50.37134
G1 X123.724 Y126.031 E50.43937
G1 X123.061 Y126.309 E50.5073
G1 X122.37 Y126.511 E50.57534
G1 X121.662 Y126.636 E50.64328
G1 X120.897 Y126.681 E50.7157
G1 X102.103 Y126.681 E52.49173
G1 X101.385 Y126.641 E52.55968
G1 X100.675 Y126.522 E52.62772
G1 X99.983 Y126.324 E52.69573
G1 X99.318 Y126.051 E52.76367
G1 X98.686 Y125.706 E52.83171
G1 X98.097 Y125.293 E52.89969
G1 X97.524 Y124.785 E52.97205
G1 X97.421 Y124.682 E52.98582
G1 X96.942 Y124.145 E53.05382
G1 X96.525 Y123.559 E53.12179
G1 X96.175 Y122.93 E53.18981
G1 X95.897 Y122.267 E53.25775
G1 X95.695 Y121.576 E53.32578
G1 X95.57 Y120.868 E53.39372
G1 X95.525 Y120.103 E53.46614
G1 X95.525 Y102.897 E55.09211
G1 X95.565 Y102.179 E55.16006
G1 X95.684 Y101.469 E55.22809
G1 X95.882 Y100.777 E55.29611
G1 X96.155 Y100.112 E55.36404
G1 X96.5 Y99.48 E55.43209
G1 X96.913 Y98.891 E55.50007
G1 X97.421 Y98.318 E55.57243
G1 X97.524 Y98.215 E55.5862
G0 F4500 X97.772 Y98.463
G1 F1800 X98.294 Y97.997 E55.65232
G1 X98.866 Y97.594 E55.71844
G1 X99.48 Y97.259 E55.78454
G1 X100.129 Y96.996 E55.85072
G1 X100.803 Y96.809 E55.91682
G1 X101.494 Y96.699 E55.98294
G1 X102.103 Y96.669 E56.04056
G1 X120.897 Y96.669 E57.81659
G1 X121.596 Y96.709 E57.88275
G1 X122.285 Y96.828 E57.94883
G1 X122.956 Y97.026 E58.01494
G1 X123.601 Y97.298 E58.08109
G1 X124.21 Y97.642 E58.14719
G1 X124.776 Y98.054 E58.21335
G1 X125.228 Y98.463 E58.27095
G1 X125.331 Y98.566 E58.28472
G1 X125.797 Y99.088 E58.35084
G1 X126.2 Y99.66 E58.41696
G1 X126.535 Y100.274 E58.48306
G1 X126.798 Y100.923 E58.54924
G1 X126.985 Y101.597 E58.61534
G1 X127.095 Y102.288 E58.68146
G1 X127.125 Y102.897 E58.73908
G1 X127.125 Y120.103 E60.36505
G1 X127.085 Y120.802 E60.43121
G1 X126.966 Y121.491 E60.49728
G1 X126.768 Y122.162 E60.5634
G1 X126.496 Y122.807 E60.62955
G1 X126.152 Y123.416 E60.69564
G1 X125.74 Y123.982 E60.7618
G1 X125.331 Y124.434 E60.81941
G1 X125.228 Y124.537 E60.83317
G1 X124.706 Y125.003 E60.8993
G1 X124.134 Y125.406 E60.96542
G1 X123.52 Y125.741 E61.03152
G1 X122.871 Y126.004 E61.09769
G1 X122.197 Y126.191 E61.16379
G1 X121.506 Y126.301 E61.22991
G1 X120.897 Y126.331 E61.28753
G1 X102.103 Y126.331 E63.06357
G1 X101.404 Y126.291 E63.12973
G1 X100.715 Y126.172 E63.1958
G1 X100.044 Y125.974 E63.26192
G1 X99.399 Y125.702 E63.32807
G1 X98.79 Y125.358 E63.39416
G1 X98.224 Y124.946 E63.46032
G1 X97.772 Y124.537 E63.51793
G1 X97.669 Y124.434 E63.53169
G1 X97.203 Y123.912 E63.59782
G1 X96.8 Y123.34 E63.66394
G1 X96.465 Y122.726 E63.73004
G1 X96.202 Y122.077 E63.79621
G1 X96.015 Y121.403 E63.86231
G1 X95.905 Y120.712 E63.92843
G1 X95.875 Y120.103 E63.98605
G1 X95.875 Y102.897 E65.61202
G1 X95.915 Y102.198 E65.67818
G1 X96.034 Y101.509 E65.74426
G1 X96.232 Y100.838 E65.81037
G1 X96.504 Y100.193 E65.87652
G1 X96.848 Y99.584 E65.94262
G1 X97.26 Y99.018 E66.00877
G1 X97.669 Y98.566 E66.06638
G1 X97.772 Y98.463 E66.08014
G0 F4500 X98.019 Y98.71
G1 F1800 X98.527 Y98.259 E66.14434
G1 X99.085 Y97.871 E66.20857
G1 X99.684 Y97.55 E66.27279
G1 X100.316 Y97.302 E66.33694
G1 X100.974 Y97.13 E66.40121
G1 X101.647 Y97.037 E66.46542
G1 X102.103 Y97.019 E66.50854
G1 X120.897 Y97.019 E68.28458
G1 X121.575 Y97.059 E68.34876
G1 X122.244 Y97.178 E68.41297
G1 X122.894 Y97.375 E68.47716
G1 X123.517 Y97.647 E68.5414
G1 X124.103 Y97.991 E68.60561
G1 X124.645 Y98.401 E68.66983
G1 X124.981 Y98.71 E68.71297
G1 X125.084 Y98.813 E68.72673
G1 X125.535 Y99.321 E68.79093
G1 X125.923 Y99.879 E68.85516
G1 X126.244 Y100.478 E68.91938
G1 X126.492 Y101.11 E68.98353
G1 X126.664 Y101.768 E69.0478
G1 X126.757 Y102.441 E69.11201
G1 X126.775 Y102.897 E69.15513
G1 X126.775 Y120.103 E70.7811
G1 X126.735 Y120.781 E70.84528
G1 X126.616 Y121.45 E70.9095
G1 X126.419 Y122.1 E70.97368
G1 X126.147 Y122.723 E71.03792
G1 X125.803 Y123.309 E71.10213
G1 X125.393 Y123.851 E71.16636
G1 X125.084 Y124.187 E71.20949
G1 X124.981 Y124.29 E71.22326
G1 X124.473 Y124.741 E71.28745
G1 X123.915 Y125.129 E71.35168
G1 X123.316 Y125.45 E71.4159
G1 X122.684 Y125.698 E71.48006
G1 X122.026 Y125.87 E71.54433
G1 X121.353 Y125.963 E71.60853
G1 X120.897 Y125.981 E71.65166
G1 X102.103 Y125.981 E73.42769
G1 X101.425 Y125.941 E73.49187
G1 X100.756 Y125.822 E73.55609
G1 X100.106 Y125.625 E73.62027
G1 X99.483 Y125.353 E73.68451
G1 X98.897 Y125.009 E73.74872
G1 X98.355 Y124.599 E73.81295
G1 X98.019 Y124.29 E73.85608
G1 X97.916 Y124.187 E73.86985
G1 X97.465 Y123.679 E73.93404
G1 X97.077 Y123.121 E73.99827
G1 X96.756 Y122.522 E74.06249
G1 X96.508 Y121.89 E74.12665
G1 X96.336 Y121.232 E74.19092
G1 X96.243 Y120.559 E74.25512
G1 X96.225 Y120.103 E74.29825
G1 X96.225 Y102.897 E75.92421
G1 X96.265 Y102.219 E75.9884
G1 X96.384 Y101.55 E76.05261
G1 X96.581 Y100.9 E76.11679
G1 X96.853 Y100.277 E76.18103
G1 X97.197 Y99.691 E76.24525
G1 X97.607 Y99.149 E76.30947
G1 X97.916 Y98.813 E76.35261
G1 X98.019 Y98.71 E76.36637
G0 F4500 X98.267 Y98.958
G1 F1800 X98.76 Y98.521 E76.42863
G1 X99.302 Y98.148 E76.49081
G1 X99.886 Y97.843 E76.55307
G1 X100.502 Y97.611 E76.61527
G1 X101.142 Y97.455 E76.67752
G1 X102.103 Y97.369 E76.7687
G1 X120.897 Y97.369 E78.54473
G1 X121.554 Y97.409 E78.60693
G1 X122.202 Y97.528 E78.66919
G1 X122.83 Y97.725 E78.73139
G1 X123.43 Y97.997 E78.79364
G1 X123.993 Y98.339 E78.8559
G1 X124.733 Y98.958 E78.94707
G1 X124.836 Y99.061 E78.96083
G1 X125.273 Y99.554 E79.02309
G1 X125.646 Y100.096 E79.08526
G1 X125.951 Y100.68 E79.14752
G1 X126.183 Y101.296 E79.20973
G1 X126.339 Y101.936 E79.27198
G1 X126.425 Y102.897 E79.36316
G1 X126.425 Y120.103 E80.98912
G1 X126.385 Y120.76 E81.05132
G1 X126.266 Y121.408 E81.11358
G1 X126.069 Y122.036 E81.17578
G1 X125.797 Y122.636 E81.23804
G1 X125.455 Y123.199 E81.30029
G1 X124.836 Y123.939 E81.39146
G1 X124.733 Y124.042 E81.40522
G1 X124.24 Y124.479 E81.46748
G1 X123.698 Y124.852 E81.52965
G1 X123.114 Y125.157 E81.59192
G1 X122.498 Y125.389 E81.65412
G1 X121.858 Y125.545 E81.71637
G1 X120.897 Y125.631 E81.80755
G1 X102.103 Y125.631 E83.58358
G1 X101.446 Y125.591 E83.64578
G1 X100.798 Y125.472 E83.70804
G1 X100.17 Y125.275 E83.77024
G1 X99.57 Y125.003 E83.83249
G1 X99.007 Y124.661 E83.89474
G1 X98.267 Y124.042 E83.98591
G1 X98.164 Y123.939 E83.99968
G1 X97.727 Y123.446 E84.06194
G1 X97.354 Y122.904 E84.12411
G1 X97.049 Y122.32 E84.18637
G1 X96.817 Y121.704 E84.24858
G1 X96.661 Y121.064 E84.31083
G1 X96.575 Y120.103 E84.402
G1 X96.575 Y102.897 E86.02797
G1 X96.615 Y102.24 E86.09017
G1 X96.734 Y101.592 E86.15243
G1 X96.931 Y100.964 E86.21463
G1 X97.203 Y100.364 E86.27688
G1 X97.545 Y99.801 E86.33914
G1 X98.164 Y99.061 E86.4303
G1 X98.267 Y98.958 E86.44407
G0 F4500 X98.514 Y99.205
