;FLAVOR:UltiGCode
;TIME:21338
;MATERIAL:40153
;MATERIAL2:0
;NOZZLE_DIAMETER:0.4
;MINX:65.15
;MINY:55.15
;MINZ:0.27
;MAXX:157.85
;MAXY:167.85
;MAXZ:39.87
;Generated with Cura_SteamEngine 4.8.0
M82 ;absolute extrusion mode
G0 F3000 Y50 ;avoid prime blob
G92 E0
G92 E0
G10
;LAYER_COUNT:265
;LAYER:0
M107
G0 F4500 X67.605 Y58.515 Z0.27
;TYPE:SKIRT
G11
G1 F1800 X68.143 Y57.931 E0.07504
G1 X68.736 Y57.404 E0.15001
G1 X69.129 Y57.109 E0.19644
G1 X69.554 Y56.81 E0.24555
G1 X70.225 Y56.387 E0.32051
G1 X70.935 Y56.033 E0.39548
G1 X71.369 Y55.859 E0.43967
G1 X71.848 Y55.683 E0.48789
G1 X72.606 Y55.447 E0.56291
G1 X73.687 Y55.249 E0.66677
G1 X74.133 Y55.199 E0.70918
G1 X75.01 Y55.15 E0.79218
G1 X118.082 Y55.152 E4.86249
G1 X118.875 Y55.192 E4.93752
G1 X119.444 Y55.271 E4.99181
G1 X119.951 Y55.36 E5.04045
G1 X120.724 Y55.536 E5.11537
G1 X121.476 Y55.789 E5.19035
G1 X121.908 Y55.975 E5.2348
G1 X122.377 Y56.193 E5.28367
G1 X123.079 Y56.563 E5.35866
G1 X123.74 Y57.002 E5.43365
G1 X124.093 Y57.279 E5.47605
G1 X124.485 Y57.605 E5.52423
G1 X124.69 Y57.794 E5.55058
G1 X125.153 Y57.559 E5.59964
G1 X125.893 Y57.273 E5.67462
G1 X126.658 Y57.062 E5.74961
G1 X127.44 Y56.93 E5.82455
G1 X128.232 Y56.877 E5.89956
G1 X129.025 Y56.904 E5.97454
G1 X129.811 Y57.011 E6.04951
G1 X130.583 Y57.196 E6.12453
G1 X130.986 Y57.327 E6.16457
G1 X132.046 Y57.702 E6.27083
G1 X132.448 Y57.857 E6.31154
G1 X133.461 Y58.279 E6.41524
G1 X133.662 Y58.365 E6.4359
G1 X135.157 Y59.037 E6.5908
G1 X135.484 Y59.194 E6.62508
G1 X136.553 Y59.735 E6.7383
G1 X136.8 Y59.865 E6.76467
G1 X138.051 Y60.555 E6.89968
G1 X138.385 Y60.75 E6.93623
G1 X139.216 Y61.263 E7.02852
G1 X139.513 Y61.456 E7.06199
G1 X141.411 Y62.749 E7.27902
G1 X141.794 Y63.027 E7.32374
G1 X143.104 Y64.04 E7.48023
G1 X143.422 Y64.299 E7.51899
G1 X144.272 Y65.03 E7.62493
G1 X144.423 Y65.164 E7.64401
G1 X145.409 Y66.057 E7.76972
G1 X145.831 Y66.469 E7.82545
G1 X146.189 Y66.846 E7.87458
G1 X147.326 Y68.023 E8.02923
G1 X147.613 Y68.337 E8.06943
G1 X148.568 Y69.439 E8.20723
G1 X148.778 Y69.691 E8.23823
G1 X149.883 Y71.079 E8.40589
G1 X150.152 Y71.437 E8.44821
G1 X150.792 Y72.342 E8.55295
G1 X151.083 Y72.777 E8.60241
G1 X152.238 Y74.594 E8.80587
G1 X152.485 Y75.011 E8.85167
G1 X153.023 Y75.985 E8.95682
G1 X153.132 Y76.189 E8.97868
G1 X153.642 Y77.18 E9.084
G1 X153.85 Y77.618 E9.12983
G1 X155.066 Y80.387 E9.41562
G1 X155.283 Y80.936 E9.4714
G1 X155.863 Y82.582 E9.63632
G1 X156.034 Y83.112 E9.68895
G1 X156.102 Y83.345 E9.71189
G1 X156.664 Y85.379 E9.9113
G1 X156.785 Y85.848 E9.95707
G1 X156.907 Y86.401 E10.01059
G1 X157.447 Y89.359 E10.29474
G1 X157.542 Y90.057 E10.36131
G1 X157.761 Y92.455 E10.58886
G1 X157.778 Y92.663 E10.60859
G1 X157.815 Y93.235 E10.66275
G1 X157.831 Y93.743 E10.71078
G1 X157.845 Y94.388 E10.77175
G1 X157.845 Y98.653 E11.17479
G1 X157.85 Y99.03 E11.21042
G1 X157.849 Y128.888 E14.032
G1 X157.828 Y129.533 E14.09299
G1 X157.816 Y129.727 E14.11135
G1 X157.748 Y130.665 E14.20023
G1 X157.615 Y132.196 E14.34545
G1 X157.559 Y132.631 E14.3869
G1 X157.366 Y134.177 E14.53413
G1 X157.275 Y134.74 E14.58802
G1 X156.799 Y137.129 E14.81822
G1 X156.683 Y137.627 E14.86654
G1 X156.456 Y138.469 E14.94895
G1 X156.007 Y140.018 E15.10136
G1 X155.88 Y140.416 E15.14084
G1 X155.638 Y141.109 E15.21021
G1 X155.304 Y142.024 E15.30225
G1 X155.223 Y142.235 E15.32361
G1 X154.668 Y143.63 E15.46549
G1 X154.523 Y143.971 E15.50051
G1 X154.299 Y144.465 E15.55176
G1 X154.201 Y144.674 E15.57358
G1 X153.536 Y146.033 E15.71655
G1 X153.396 Y146.306 E15.74555
G1 X152.739 Y147.526 E15.87649
G1 X152.552 Y147.853 E15.91209
G1 X152.046 Y148.693 E16.00476
G1 X151.515 Y149.569 E16.10156
G1 X151.267 Y149.953 E16.14476
G1 X150.385 Y151.234 E16.29173
G1 X150.186 Y151.51 E16.32389
G1 X149.483 Y152.442 E16.43421
G1 X149.249 Y152.737 E16.46979
G1 X148.376 Y153.785 E16.59869
G1 X147.585 Y154.713 E16.71392
G1 X146.786 Y155.548 E16.82313
G1 X146.539 Y155.813 E16.85736
G1 X146.227 Y156.128 E16.89926
G1 X144.865 Y157.427 E17.07712
G1 X144.614 Y157.656 E17.10923
G1 X143.745 Y158.416 E17.21833
G1 X143.541 Y158.588 E17.24354
G1 X142.158 Y159.717 E17.41226
G1 X141.646 Y160.102 E17.47279
G1 X140.405 Y160.957 E17.61521
G1 X140.191 Y161.099 E17.63948
G1 X138.976 Y161.879 E17.77592
G1 X138.713 Y162.041 E17.80511
G1 X137.837 Y162.556 E17.90114
G1 X137.239 Y162.885 E17.96563
G1 X135.886 Y163.595 E18.11003
G1 X135.654 Y163.712 E18.13458
G1 X134.764 Y164.14 E18.22791
G1 X133.859 Y164.555 E18.32199
G1 X133.411 Y164.744 E18.36794
G1 X131.2 Y165.597 E18.59189
G1 X130.446 Y165.845 E18.6669
G1 X129.671 Y166.016 E18.7419
G1 X128.883 Y166.108 E18.81687
G1 X128.089 Y166.12 E18.89191
G1 X127.299 Y166.052 E18.96684
G1 X126.519 Y165.906 E19.04183
G1 X125.758 Y165.681 E19.11683
G1 X125.024 Y165.381 E19.19176
G1 X124.7 Y165.209 E19.22642
G1 X124.266 Y165.594 E19.28125
G1 X123.875 Y165.888 E19.32748
G1 X123.449 Y166.188 E19.37672
G1 X122.778 Y166.611 E19.45167
G1 X122.068 Y166.965 E19.52664
G1 X121.631 Y167.141 E19.57116
G1 X121.152 Y167.317 E19.61939
G1 X120.394 Y167.553 E19.69441
G1 X119.313 Y167.751 E19.79827
G1 X118.867 Y167.801 E19.84068
G1 X117.99 Y167.85 E19.92368
G1 X74.918 Y167.848 E23.99399
G1 X74.125 Y167.808 E24.06902
G1 X73.556 Y167.729 E24.12331
G1 X73.049 Y167.64 E24.17195
G1 X72.276 Y167.464 E24.24687
G1 X71.524 Y167.211 E24.32185
G1 X71.092 Y167.025 E24.36629
G1 X70.623 Y166.807 E24.41517
G1 X69.921 Y166.437 E24.49016
G1 X69.26 Y165.998 E24.56514
G1 X68.907 Y165.721 E24.60755
G1 X68.515 Y165.395 E24.65573
G1 X67.931 Y164.857 E24.73076
G1 X67.404 Y164.264 E24.80573
G1 X67.109 Y163.871 E24.85217
G1 X66.81 Y163.446 E24.90128
G1 X66.387 Y162.775 E24.97623
G1 X66.033 Y162.065 E25.05121
G1 X65.86 Y161.635 E25.09501
G1 X65.683 Y161.154 E25.14344
G1 X65.447 Y160.396 E25.21846
G1 X65.247 Y159.302 E25.32356
G1 X65.198 Y158.86 E25.36559
G1 X65.15 Y157.992 E25.44774
G1 X65.152 Y64.918 E34.24323
G1 X65.192 Y64.125 E34.31826
G1 X65.27 Y63.559 E34.37226
G1 X65.359 Y63.051 E34.42099
G1 X65.535 Y62.277 E34.496
G1 X65.788 Y61.525 E34.57098
G1 X65.977 Y61.085 E34.61623
G1 X66.195 Y60.617 E34.66502
G1 X66.566 Y59.915 E34.74006
G1 X67.006 Y59.255 E34.81502
G1 X67.279 Y58.907 E34.85681
G1 X67.605 Y58.515 E34.90499
G0 F4500 X67.874 Y58.738
G1 F1800 X68.4 Y58.168 E34.97829
G1 X68.982 Y57.656 E35.05154
G1 X69.33 Y57.396 E35.09259
G1 X69.755 Y57.097 E35.1417
G1 X70.412 Y56.683 E35.21508
G1 X71.107 Y56.34 E35.28832
G1 X71.49 Y56.188 E35.32726
G1 X71.969 Y56.012 E35.37549
G1 X72.71 Y55.782 E35.44881
G1 X73.726 Y55.597 E35.5464
G1 X74.172 Y55.547 E35.58881
G1 X75.01 Y55.5 E35.66813
G1 X118.082 Y55.502 E39.73843
G1 X118.857 Y55.542 E39.81176
G1 X119.383 Y55.615 E39.86195
G1 X119.89 Y55.704 E39.91059
G1 X120.646 Y55.878 E39.9839
G1 X121.38 Y56.128 E40.05718
G1 X121.761 Y56.292 E40.09638
G1 X122.23 Y56.51 E40.14525
G1 X122.915 Y56.873 E40.21851
G1 X123.56 Y57.304 E40.29182
G1 X123.87 Y57.548 E40.3291
G1 X124.262 Y57.874 E40.37728
G1 X124.636 Y58.22 E40.42543
G1 X124.787 Y58.128 E40.44214
G1 X125.488 Y57.796 E40.51544
G1 X126.219 Y57.537 E40.58872
G1 X126.973 Y57.355 E40.66202
G1 X127.741 Y57.251 E40.73526
G1 X128.517 Y57.228 E40.80863
G1 X129.29 Y57.284 E40.88187
G1 X130.054 Y57.419 E40.95518
G1 X130.87 Y57.657 E41.03551
G1 X131.93 Y58.032 E41.14176
G1 X132.314 Y58.18 E41.18065
G1 X133.327 Y58.602 E41.28435
G1 X133.518 Y58.685 E41.30403
G1 X135.013 Y59.357 E41.45893
G1 X135.326 Y59.506 E41.49169
G1 X136.395 Y60.047 E41.60491
G1 X136.631 Y60.172 E41.63014
G1 X137.882 Y60.862 E41.76515
G1 X138.201 Y61.048 E41.80005
G1 X139.032 Y61.561 E41.89234
G1 X139.316 Y61.745 E41.92431
G1 X141.214 Y63.038 E42.14134
G1 X141.58 Y63.304 E42.1841
G1 X142.89 Y64.317 E42.34059
G1 X143.194 Y64.565 E42.37766
G1 X144.044 Y65.296 E42.48361
G1 X144.188 Y65.423 E42.50175
G1 X145.174 Y66.316 E42.62746
G1 X145.578 Y66.71 E42.68079
G1 X145.98 Y67.133 E42.73594
G1 X147.074 Y68.266 E42.88477
G1 X147.349 Y68.566 E42.92323
G1 X148.304 Y69.668 E43.06103
G1 X148.504 Y69.909 E43.09063
G1 X149.609 Y71.297 E43.25828
G1 X149.866 Y71.639 E43.29871
G1 X150.506 Y72.544 E43.40346
G1 X150.788 Y72.965 E43.45134
G1 X151.943 Y74.782 E43.6548
G1 X152.179 Y75.181 E43.69861
G1 X152.717 Y76.155 E43.80376
G1 X152.821 Y76.35 E43.82465
G1 X153.331 Y77.341 E43.92997
G1 X153.53 Y77.758 E43.97363
G1 X154.746 Y80.527 E44.25942
G1 X154.953 Y81.052 E44.31275
G1 X155.533 Y82.698 E44.47767
G1 X155.7 Y83.216 E44.52911
G1 X155.765 Y83.438 E44.55097
G1 X156.291 Y85.337 E44.73718
G1 X156.446 Y85.935 E44.79556
G1 X156.563 Y86.464 E44.84675
G1 X157.103 Y89.422 E45.13091
G1 X157.194 Y90.089 E45.19452
G1 X157.413 Y92.487 E45.42208
G1 X157.428 Y92.685 E45.44084
G1 X157.465 Y93.257 E45.49501
G1 X157.491 Y94.152 E45.57962
G1 X157.495 Y94.388 E45.60193
G1 X157.495 Y98.659 E46.00553
G1 X157.5 Y99.03 E46.0406
G1 X157.499 Y128.888 E48.86218
G1 X157.478 Y129.517 E48.92165
G1 X157.467 Y129.702 E48.93917
G1 X157.4 Y130.634 E49.02747
G1 X157.267 Y132.165 E49.17269
G1 X157.212 Y132.587 E49.21291
G1 X157.019 Y134.133 E49.36014
G1 X156.932 Y134.671 E49.41164
G1 X156.456 Y137.06 E49.64184
G1 X156.345 Y137.537 E49.68812
G1 X156.161 Y138.224 E49.75533
G1 X155.67 Y139.921 E49.92227
G1 X155.55 Y140.3 E49.95984
G1 X155.309 Y140.989 E50.02882
G1 X154.975 Y141.904 E50.12087
G1 X154.898 Y142.106 E50.1413
G1 X154.343 Y143.501 E50.28317
G1 X154.204 Y143.827 E50.31666
G1 X153.98 Y144.321 E50.36792
G1 X153.886 Y144.52 E50.38872
G1 X153.221 Y145.879 E50.5317
G1 X153.087 Y146.14 E50.55942
G1 X152.43 Y147.36 E50.69037
G1 X152.252 Y147.673 E50.72439
G1 X151.747 Y148.512 E50.81693
G1 X151.216 Y149.388 E50.91374
G1 X150.979 Y149.754 E50.95494
G1 X150.097 Y151.035 E51.10192
G1 X149.907 Y151.299 E51.13265
G1 X149.204 Y152.231 E51.24297
G1 X148.98 Y152.513 E51.27701
G1 X148.11 Y153.558 E51.4055
G1 X147.319 Y154.486 E51.52073
G1 X146.478 Y155.366 E51.63576
G1 X146.284 Y155.574 E51.66264
G1 X145.986 Y155.874 E51.7026
G1 X144.624 Y157.173 E51.88046
G1 X144.384 Y157.392 E51.91117
G1 X143.515 Y158.152 E52.02026
G1 X143.32 Y158.317 E52.0444
G1 X141.937 Y159.446 E52.21311
G1 X141.447 Y159.814 E52.27102
G1 X140.206 Y160.669 E52.41343
G1 X140.002 Y160.804 E52.43655
G1 X138.787 Y161.584 E52.57299
G1 X138.536 Y161.739 E52.60087
G1 X137.66 Y162.254 E52.6969
G1 X137.072 Y162.578 E52.76034
G1 X135.723 Y163.285 E52.90427
G1 X135.502 Y163.397 E52.92768
G1 X134.618 Y163.822 E53.02037
G1 X133.713 Y164.237 E53.11446
G1 X133.285 Y164.418 E53.15837
G1 X131.074 Y165.271 E53.38232
G1 X130.336 Y165.512 E53.45569
G1 X129.578 Y165.677 E53.529
G1 X128.808 Y165.762 E53.6022
G1 X128.032 Y165.768 E53.67554
G1 X127.26 Y165.693 E53.74884
G1 X126.5 Y165.54 E53.8221
G1 X125.759 Y165.309 E53.89544
G1 X125.046 Y165.004 E53.96873
G1 X124.646 Y164.781 E54.01201
G1 X124.602 Y164.829 E54.01816
G1 X124.02 Y165.342 E54.09147
G1 X123.674 Y165.601 E54.13232
G1 X123.248 Y165.901 E54.18156
G1 X122.591 Y166.315 E54.25494
G1 X121.896 Y166.658 E54.32818
G1 X121.51 Y166.812 E54.36745
G1 X121.031 Y166.988 E54.41568
G1 X120.29 Y167.218 E54.489
G1 X119.274 Y167.403 E54.58659
G1 X118.828 Y167.453 E54.629
G1 X117.99 Y167.5 E54.70832
G1 X74.918 Y167.498 E58.77862
G1 X74.143 Y167.458 E58.85195
G1 X73.617 Y167.385 E58.90214
G1 X73.11 Y167.296 E58.95078
G1 X72.354 Y167.122 E59.02409
G1 X71.62 Y166.872 E59.09737
G1 X71.239 Y166.708 E59.13657
G1 X70.77 Y166.49 E59.18544
G1 X70.085 Y166.127 E59.2587
G1 X69.44 Y165.696 E59.33201
G1 X69.13 Y165.452 E59.36929
G1 X68.738 Y165.126 E59.41747
G1 X68.168 Y164.6 E59.49077
G1 X67.656 Y164.018 E59.56402
G1 X67.396 Y163.67 E59.60507
G1 X67.097 Y163.245 E59.65417
G1 X66.683 Y162.588 E59.72756
G1 X66.34 Y161.893 E59.8008
G1 X66.189 Y161.514 E59.83935
G1 X66.012 Y161.033 E59.88779
G1 X65.782 Y160.292 E59.96111
G1 X65.595 Y159.263 E60.05994
G1 X65.546 Y158.821 E60.10197
G1 X65.5 Y157.992 E60.18043
G1 X65.502 Y64.918 E68.97592
G1 X65.542 Y64.143 E69.04925
G1 X65.615 Y63.619 E69.09925
G1 X65.704 Y63.111 E69.14799
G1 X65.877 Y62.355 E69.22128
G1 X66.127 Y61.621 E69.29455
G1 X66.295 Y61.233 E69.33451
G1 X66.513 Y60.765 E69.3833
G1 X66.876 Y60.079 E69.45664
G1 X67.308 Y59.435 E69.52992
G1 X67.548 Y59.13 E69.5666
G1 X67.874 Y58.738 E69.61478
G0 F4500 X68.143 Y58.962
G1 F1800 X68.658 Y58.406 E69.6864
G1 X69.532 Y57.682 E69.79365
G1 X69.957 Y57.383 E69.84275
G1 X70.598 Y56.98 E69.9143
G1 X71.61 Y56.516 E70.01951
G1 X72.089 Y56.34 E70.06774
G1 X72.813 Y56.117 E70.13933
G1 X73.765 Y55.945 E70.23075
G1 X74.211 Y55.895 E70.27316
G1 X75.01 Y55.85 E70.34878
G1 X118.082 Y55.852 E74.41909
G1 X118.839 Y55.892 E74.49072
G1 X119.323 Y55.96 E74.53691
G1 X119.83 Y56.049 E74.58555
G1 X120.568 Y56.219 E74.65712
G1 X121.613 Y56.61 E74.76256
G1 X122.082 Y56.828 E74.81144
G1 X122.751 Y57.183 E74.88301
G1 X123.646 Y57.817 E74.98665
G1 X124.038 Y58.143 E75.03483
G1 X124.589 Y58.654 E75.10585
G1 X125.127 Y58.346 E75.16443
G1 X125.82 Y58.041 E75.23598
G1 X126.542 Y57.81 E75.30762
G1 X127.283 Y57.657 E75.37912
G1 X128.037 Y57.583 E75.45071
G1 X128.794 Y57.589 E75.52225
G1 X129.547 Y57.675 E75.59387
G1 X130.286 Y57.839 E75.66541
G1 X130.753 Y57.987 E75.7117
G1 X131.813 Y58.362 E75.81796
G1 X132.179 Y58.503 E75.85502
G1 X133.192 Y58.925 E75.95873
G1 X133.375 Y59.004 E75.97756
G1 X134.87 Y59.676 E76.13245
G1 X135.168 Y59.818 E76.16365
G1 X136.237 Y60.359 E76.27687
G1 X136.462 Y60.478 E76.30092
G1 X137.713 Y61.168 E76.43593
G1 X138.017 Y61.346 E76.46922
G1 X138.848 Y61.859 E76.56151
G1 X139.119 Y62.034 E76.592
G1 X141.017 Y63.327 E76.80902
G1 X141.366 Y63.581 E76.84981
G1 X142.676 Y64.594 E77.0063
G1 X142.965 Y64.83 E77.04156
G1 X143.815 Y65.561 E77.14751
G1 X143.953 Y65.683 E77.16491
G1 X144.939 Y66.576 E77.29062
G1 X145.324 Y66.951 E77.34141
G1 X145.726 Y67.374 E77.39656
G1 X146.822 Y68.509 E77.54566
G1 X147.084 Y68.795 E77.58231
G1 X148.039 Y69.897 E77.72012
G1 X148.23 Y70.127 E77.74837
G1 X149.335 Y71.515 E77.91602
G1 X149.58 Y71.841 E77.95456
G1 X150.22 Y72.746 E78.05931
G1 X150.492 Y73.153 E78.10557
G1 X151.647 Y74.97 E78.30903
G1 X151.873 Y75.35 E78.35081
G1 X152.411 Y76.324 E78.45596
G1 X152.51 Y76.51 E78.47587
G1 X153.02 Y77.501 E78.5812
G1 X153.209 Y77.899 E78.62283
G1 X154.425 Y80.668 E78.90862
G1 X154.623 Y81.168 E78.95944
G1 X155.203 Y82.814 E79.12436
G1 X155.365 Y83.319 E79.17448
G1 X155.428 Y83.532 E79.19547
G1 X155.987 Y85.554 E79.39372
G1 X156.108 Y86.023 E79.43949
G1 X156.218 Y86.526 E79.48815
G1 X156.758 Y89.484 E79.7723
G1 X156.845 Y90.12 E79.83296
G1 X157.064 Y92.518 E80.06051
G1 X157.079 Y92.708 E80.07853
G1 X157.116 Y93.28 E80.13269
G1 X157.141 Y94.163 E80.21617
G1 X157.145 Y94.388 E80.23743
G1 X157.145 Y98.664 E80.64152
G1 X157.15 Y99.03 E80.67611
G1 X157.149 Y128.888 E83.49769
G1 X157.128 Y129.501 E83.55565
G1 X157.118 Y129.677 E83.57231
G1 X157.051 Y130.604 E83.66014
G1 X156.918 Y132.135 E83.80536
G1 X156.865 Y132.544 E83.84434
G1 X156.672 Y134.09 E83.99157
G1 X156.589 Y134.603 E84.04068
G1 X156.113 Y136.992 E84.27088
G1 X156.007 Y137.446 E84.31493
G1 X155.823 Y138.133 E84.38214
G1 X155.334 Y139.824 E84.54849
G1 X155.219 Y140.185 E84.58429
G1 X154.98 Y140.869 E84.65276
G1 X154.646 Y141.784 E84.74481
G1 X154.573 Y141.976 E84.76422
G1 X154.018 Y143.371 E84.9061
G1 X153.886 Y143.682 E84.93803
G1 X153.662 Y144.176 E84.98928
G1 X153.572 Y144.367 E85.00924
G1 X152.907 Y145.726 E85.15221
G1 X152.779 Y145.974 E85.17859
G1 X152.122 Y147.194 E85.30953
G1 X151.952 Y147.492 E85.34195
G1 X151.448 Y148.33 E85.43436
G1 X150.917 Y149.206 E85.53117
G1 X150.691 Y149.556 E85.57054
G1 X149.809 Y150.837 E85.71751
G1 X149.627 Y151.089 E85.74689
G1 X148.924 Y152.021 E85.85721
G1 X148.711 Y152.289 E85.88956
G1 X147.844 Y153.331 E86.01765
G1 X147.053 Y154.259 E86.13289
G1 X146.485 Y154.853 E86.21055
G1 X146.434 Y154.9 E86.21711
G1 X146.028 Y155.334 E86.27327
G1 X145.744 Y155.621 E86.31142
G1 X144.382 Y156.92 E86.48928
G1 X144.153 Y157.129 E86.51858
G1 X143.284 Y157.889 E86.62768
G1 X143.098 Y158.046 E86.65068
G1 X141.715 Y159.175 E86.81939
G1 X141.249 Y159.525 E86.87447
G1 X140.008 Y160.38 E87.01688
G1 X139.813 Y160.51 E87.03903
G1 X138.598 Y161.29 E87.17547
G1 X138.358 Y161.437 E87.20206
G1 X137.482 Y161.952 E87.29809
